<?xml version="1.0" encoding="UTF-8"?>
<map version="1.10" tiledversion="1.12.2-2-geb83ddb9" orientation="orthogonal" renderorder="right-down" width="40" height="24" tilewidth="16" tileheight="16" infinite="0" nextlayerid="34" nextobjectid="173">
 <tileset firstgid="1" name="walls_floor" tilewidth="16" tileheight="16" tilecount="299" columns="13">
  <image source="walls_floor.png" width="208" height="368"/>
 </tileset>
 <tileset firstgid="300" name="decorative_cracks_coasts_animation" tilewidth="16" tileheight="16" tilecount="336" columns="16">
  <image source="decorative_cracks_coasts_animation.png" width="256" height="336"/>
 </tileset>
 <tileset firstgid="636" name="decorative_cracks_floor" tilewidth="16" tileheight="16" tilecount="120" columns="8">
  <image source="decorative_cracks_floor.png" width="128" height="240"/>
 </tileset>
 <tileset firstgid="756" name="decorative_cracks_walls" tilewidth="16" tileheight="16" tilecount="256" columns="8">
  <image source="decorative_cracks_walls.png" width="128" height="512"/>
 </tileset>
 <tileset firstgid="1012" name="doors_lever_chest_animation" tilewidth="16" tileheight="16" tilecount="120" columns="10">
  <image source="doors_lever_chest_animation.png" width="160" height="192"/>
  <tile id="60">
   <animation>
    <frame tileid="60" duration="200"/>
    <frame tileid="62" duration="200"/>
    <frame tileid="64" duration="200"/>
    <frame tileid="66" duration="200"/>
    <frame tileid="68" duration="200"/>
   </animation>
  </tile>
  <tile id="61">
   <animation>
    <frame tileid="61" duration="200"/>
    <frame tileid="63" duration="200"/>
    <frame tileid="65" duration="200"/>
    <frame tileid="67" duration="200"/>
    <frame tileid="69" duration="200"/>
   </animation>
  </tile>
  <tile id="70">
   <animation>
    <frame tileid="70" duration="200"/>
    <frame tileid="72" duration="200"/>
    <frame tileid="74" duration="200"/>
    <frame tileid="76" duration="200"/>
    <frame tileid="78" duration="200"/>
   </animation>
  </tile>
  <tile id="71">
   <animation>
    <frame tileid="71" duration="200"/>
    <frame tileid="73" duration="200"/>
    <frame tileid="75" duration="200"/>
    <frame tileid="77" duration="200"/>
    <frame tileid="79" duration="200"/>
   </animation>
  </tile>
  <tile id="115">
   <animation>
    <frame tileid="60" duration="200"/>
    <frame tileid="62" duration="200"/>
    <frame tileid="64" duration="200"/>
    <frame tileid="66" duration="200"/>
    <frame tileid="68" duration="200"/>
   </animation>
  </tile>
 </tileset>
 <tileset firstgid="1132" name="fire_animation" tilewidth="16" tileheight="16" tilecount="198" columns="11">
  <image source="fire_animation.png" width="176" height="288"/>
  <tile id="0">
   <animation>
    <frame tileid="5" duration="100"/>
    <frame tileid="38" duration="100"/>
    <frame tileid="71" duration="100"/>
    <frame tileid="104" duration="100"/>
    <frame tileid="137" duration="100"/>
    <frame tileid="170" duration="100"/>
   </animation>
  </tile>
 </tileset>
 <tileset firstgid="1330" name="fire_animation2" tilewidth="16" tileheight="16" tilecount="72" columns="6">
  <image source="fire_animation2.png" width="96" height="192"/>
 </tileset>
 <tileset firstgid="1402" name="Objects" tilewidth="16" tileheight="16" tilecount="144" columns="24">
  <image source="Objects.png" width="384" height="96"/>
 </tileset>
 <tileset firstgid="1546" name="trap_animation" tilewidth="16" tileheight="16" tilecount="225" columns="9">
  <image source="trap_animation.png" width="144" height="400"/>
 </tileset>
 <tileset firstgid="1771" name="Water_coasts_animation" tilewidth="16" tileheight="16" tilecount="616" columns="22">
  <image source="Water_coasts_animation.png" width="352" height="448"/>
  <tile id="113">
   <animation>
    <frame tileid="113" duration="100"/>
    <frame tileid="124" duration="100"/>
    <frame tileid="311" duration="100"/>
    <frame tileid="322" duration="100"/>
    <frame tileid="509" duration="100"/>
    <frame tileid="520" duration="100"/>
   </animation>
  </tile>
  <tile id="114">
   <animation>
    <frame tileid="48" duration="100"/>
    <frame tileid="59" duration="100"/>
    <frame tileid="246" duration="100"/>
    <frame tileid="257" duration="100"/>
    <frame tileid="444" duration="100"/>
    <frame tileid="455" duration="100"/>
   </animation>
  </tile>
  <tile id="115">
   <animation>
    <frame tileid="115" duration="100"/>
    <frame tileid="126" duration="100"/>
    <frame tileid="313" duration="100"/>
    <frame tileid="324" duration="100"/>
    <frame tileid="511" duration="100"/>
    <frame tileid="522" duration="100"/>
   </animation>
  </tile>
  <tile id="157">
   <animation>
    <frame tileid="157" duration="100"/>
    <frame tileid="168" duration="100"/>
    <frame tileid="355" duration="100"/>
    <frame tileid="366" duration="100"/>
    <frame tileid="553" duration="100"/>
    <frame tileid="564" duration="100"/>
   </animation>
  </tile>
  <tile id="159">
   <animation>
    <frame tileid="159" duration="100"/>
    <frame tileid="170" duration="100"/>
    <frame tileid="357" duration="100"/>
    <frame tileid="368" duration="100"/>
    <frame tileid="555" duration="100"/>
    <frame tileid="566" duration="100"/>
   </animation>
  </tile>
 </tileset>
 <tileset firstgid="2387" name="water_detilazation_v2" tilewidth="16" tileheight="16" tilecount="1548" columns="43">
  <image source="water_detilazation_v2.png" width="688" height="576"/>
  <tile id="38">
   <animation>
    <frame tileid="38" duration="100"/>
    <frame tileid="124" duration="100"/>
    <frame tileid="210" duration="100"/>
    <frame tileid="296" duration="100"/>
    <frame tileid="382" duration="100"/>
    <frame tileid="468" duration="100"/>
   </animation>
  </tile>
  <tile id="39">
   <animation>
    <frame tileid="39" duration="100"/>
    <frame tileid="125" duration="100"/>
    <frame tileid="211" duration="100"/>
    <frame tileid="297" duration="100"/>
    <frame tileid="383" duration="100"/>
    <frame tileid="469" duration="100"/>
   </animation>
  </tile>
  <tile id="40">
   <animation>
    <frame tileid="40" duration="100"/>
    <frame tileid="126" duration="100"/>
    <frame tileid="212" duration="100"/>
    <frame tileid="298" duration="100"/>
    <frame tileid="384" duration="100"/>
    <frame tileid="470" duration="100"/>
   </animation>
  </tile>
  <tile id="41">
   <animation>
    <frame tileid="41" duration="100"/>
    <frame tileid="127" duration="100"/>
    <frame tileid="213" duration="100"/>
    <frame tileid="299" duration="100"/>
    <frame tileid="385" duration="100"/>
    <frame tileid="471" duration="100"/>
   </animation>
  </tile>
  <tile id="42">
   <animation>
    <frame tileid="42" duration="100"/>
    <frame tileid="128" duration="100"/>
    <frame tileid="214" duration="100"/>
    <frame tileid="300" duration="100"/>
    <frame tileid="386" duration="100"/>
    <frame tileid="472" duration="100"/>
   </animation>
  </tile>
  <tile id="82">
   <animation>
    <frame tileid="82" duration="100"/>
    <frame tileid="168" duration="100"/>
    <frame tileid="254" duration="100"/>
    <frame tileid="340" duration="100"/>
    <frame tileid="426" duration="100"/>
    <frame tileid="512" duration="100"/>
   </animation>
  </tile>
  <tile id="83">
   <animation>
    <frame tileid="83" duration="100"/>
    <frame tileid="169" duration="100"/>
    <frame tileid="255" duration="100"/>
    <frame tileid="341" duration="100"/>
    <frame tileid="427" duration="100"/>
    <frame tileid="513" duration="100"/>
   </animation>
  </tile>
  <tile id="84">
   <animation>
    <frame tileid="84" duration="100"/>
    <frame tileid="170" duration="100"/>
    <frame tileid="256" duration="100"/>
    <frame tileid="342" duration="100"/>
    <frame tileid="428" duration="100"/>
    <frame tileid="514" duration="100"/>
   </animation>
  </tile>
  <tile id="1291">
   <animation>
    <frame tileid="1291" duration="100"/>
    <frame tileid="1334" duration="100"/>
    <frame tileid="1377" duration="100"/>
    <frame tileid="1420" duration="100"/>
    <frame tileid="1463" duration="100"/>
    <frame tileid="1506" duration="100"/>
   </animation>
  </tile>
  <tile id="1292">
   <animation>
    <frame tileid="1292" duration="100"/>
    <frame tileid="1335" duration="100"/>
    <frame tileid="1378" duration="100"/>
    <frame tileid="1421" duration="100"/>
    <frame tileid="1464" duration="100"/>
    <frame tileid="1507" duration="100"/>
   </animation>
  </tile>
  <tile id="1293">
   <animation>
    <frame tileid="1293" duration="100"/>
    <frame tileid="1336" duration="100"/>
    <frame tileid="1379" duration="100"/>
    <frame tileid="1422" duration="100"/>
    <frame tileid="1465" duration="100"/>
    <frame tileid="1508" duration="100"/>
   </animation>
  </tile>
  <tile id="1294">
   <animation>
    <frame tileid="1294" duration="100"/>
    <frame tileid="1337" duration="100"/>
    <frame tileid="1380" duration="100"/>
    <frame tileid="1423" duration="100"/>
    <frame tileid="1466" duration="100"/>
    <frame tileid="1509" duration="100"/>
   </animation>
  </tile>
  <tile id="1297">
   <animation>
    <frame tileid="1297" duration="100"/>
    <frame tileid="1340" duration="100"/>
    <frame tileid="1383" duration="100"/>
    <frame tileid="1426" duration="100"/>
    <frame tileid="1469" duration="100"/>
    <frame tileid="1512" duration="100"/>
   </animation>
  </tile>
  <tile id="1298">
   <animation>
    <frame tileid="1298" duration="100"/>
    <frame tileid="1341" duration="100"/>
    <frame tileid="1384" duration="100"/>
    <frame tileid="1427" duration="100"/>
    <frame tileid="1470" duration="100"/>
    <frame tileid="1513" duration="100"/>
   </animation>
  </tile>
  <tile id="1299">
   <animation>
    <frame tileid="1299" duration="100"/>
    <frame tileid="1342" duration="100"/>
    <frame tileid="1385" duration="100"/>
    <frame tileid="1428" duration="100"/>
    <frame tileid="1471" duration="100"/>
    <frame tileid="1514" duration="100"/>
   </animation>
  </tile>
  <tile id="1301">
   <animation>
    <frame tileid="1301" duration="100"/>
    <frame tileid="1344" duration="100"/>
    <frame tileid="1387" duration="100"/>
    <frame tileid="1430" duration="100"/>
    <frame tileid="1473" duration="100"/>
    <frame tileid="1516" duration="100"/>
   </animation>
  </tile>
  <tile id="1302">
   <animation>
    <frame tileid="1302" duration="100"/>
    <frame tileid="1345" duration="100"/>
    <frame tileid="1388" duration="100"/>
    <frame tileid="1431" duration="100"/>
    <frame tileid="1474" duration="100"/>
    <frame tileid="1517" duration="100"/>
   </animation>
  </tile>
 </tileset>
 <tileset firstgid="3935" name="walls_floor" tilewidth="16" tileheight="16" tilecount="493" columns="17">
  <image source="craftpix-net-169442-free-2d-top-down-pixel-dungeon-asset-pack/Tiled_files/walls_floor.png" width="272" height="464"/>
 </tileset>
 <tileset firstgid="4428" name="fire_animation" tilewidth="16" tileheight="16" tilecount="198" columns="11">
  <image source="craftpix-net-169442-free-2d-top-down-pixel-dungeon-asset-pack/Tiled_files/fire_animation.png" width="176" height="288"/>
  <tile id="0">
   <animation>
    <frame tileid="0" duration="150"/>
    <frame tileid="33" duration="150"/>
    <frame tileid="66" duration="150"/>
    <frame tileid="99" duration="150"/>
    <frame tileid="132" duration="150"/>
    <frame tileid="165" duration="150"/>
   </animation>
  </tile>
  <tile id="1">
   <animation>
    <frame tileid="1" duration="150"/>
    <frame tileid="34" duration="150"/>
    <frame tileid="67" duration="150"/>
    <frame tileid="100" duration="150"/>
    <frame tileid="133" duration="150"/>
    <frame tileid="166" duration="150"/>
   </animation>
  </tile>
  <tile id="2">
   <animation>
    <frame tileid="2" duration="150"/>
    <frame tileid="35" duration="150"/>
    <frame tileid="68" duration="150"/>
    <frame tileid="101" duration="150"/>
    <frame tileid="134" duration="150"/>
    <frame tileid="167" duration="150"/>
   </animation>
  </tile>
  <tile id="3">
   <animation>
    <frame tileid="3" duration="150"/>
    <frame tileid="36" duration="150"/>
    <frame tileid="69" duration="150"/>
    <frame tileid="102" duration="150"/>
    <frame tileid="135" duration="150"/>
    <frame tileid="168" duration="150"/>
   </animation>
  </tile>
  <tile id="4">
   <animation>
    <frame tileid="4" duration="150"/>
    <frame tileid="37" duration="150"/>
    <frame tileid="70" duration="150"/>
    <frame tileid="103" duration="150"/>
    <frame tileid="136" duration="150"/>
    <frame tileid="169" duration="150"/>
   </animation>
  </tile>
  <tile id="5">
   <animation>
    <frame tileid="5" duration="150"/>
    <frame tileid="38" duration="150"/>
    <frame tileid="71" duration="150"/>
    <frame tileid="104" duration="150"/>
    <frame tileid="137" duration="150"/>
    <frame tileid="170" duration="150"/>
   </animation>
  </tile>
  <tile id="6">
   <animation>
    <frame tileid="6" duration="150"/>
    <frame tileid="39" duration="150"/>
    <frame tileid="72" duration="150"/>
    <frame tileid="105" duration="150"/>
    <frame tileid="138" duration="150"/>
    <frame tileid="171" duration="150"/>
   </animation>
  </tile>
  <tile id="7">
   <animation>
    <frame tileid="7" duration="150"/>
    <frame tileid="40" duration="150"/>
    <frame tileid="73" duration="150"/>
    <frame tileid="106" duration="150"/>
    <frame tileid="139" duration="150"/>
    <frame tileid="172" duration="150"/>
   </animation>
  </tile>
  <tile id="8">
   <animation>
    <frame tileid="8" duration="150"/>
    <frame tileid="41" duration="150"/>
    <frame tileid="74" duration="150"/>
    <frame tileid="107" duration="150"/>
    <frame tileid="140" duration="150"/>
    <frame tileid="173" duration="150"/>
   </animation>
  </tile>
  <tile id="9">
   <animation>
    <frame tileid="9" duration="150"/>
    <frame tileid="42" duration="150"/>
    <frame tileid="75" duration="150"/>
    <frame tileid="108" duration="150"/>
    <frame tileid="141" duration="150"/>
    <frame tileid="174" duration="150"/>
   </animation>
  </tile>
  <tile id="10">
   <animation>
    <frame tileid="10" duration="150"/>
    <frame tileid="43" duration="150"/>
    <frame tileid="76" duration="150"/>
    <frame tileid="109" duration="150"/>
    <frame tileid="142" duration="150"/>
    <frame tileid="175" duration="150"/>
   </animation>
  </tile>
  <tile id="11">
   <animation>
    <frame tileid="11" duration="150"/>
    <frame tileid="44" duration="150"/>
    <frame tileid="77" duration="150"/>
    <frame tileid="110" duration="150"/>
    <frame tileid="143" duration="150"/>
    <frame tileid="176" duration="150"/>
   </animation>
  </tile>
  <tile id="12">
   <animation>
    <frame tileid="12" duration="150"/>
    <frame tileid="45" duration="150"/>
    <frame tileid="78" duration="150"/>
    <frame tileid="111" duration="150"/>
    <frame tileid="144" duration="150"/>
    <frame tileid="177" duration="150"/>
   </animation>
  </tile>
  <tile id="13">
   <animation>
    <frame tileid="13" duration="150"/>
    <frame tileid="46" duration="150"/>
    <frame tileid="79" duration="150"/>
    <frame tileid="112" duration="150"/>
    <frame tileid="145" duration="150"/>
    <frame tileid="178" duration="150"/>
   </animation>
  </tile>
  <tile id="14">
   <animation>
    <frame tileid="14" duration="150"/>
    <frame tileid="47" duration="150"/>
    <frame tileid="80" duration="150"/>
    <frame tileid="113" duration="150"/>
    <frame tileid="146" duration="150"/>
    <frame tileid="179" duration="150"/>
   </animation>
  </tile>
  <tile id="15">
   <animation>
    <frame tileid="15" duration="150"/>
    <frame tileid="48" duration="150"/>
    <frame tileid="81" duration="150"/>
    <frame tileid="114" duration="150"/>
    <frame tileid="147" duration="150"/>
    <frame tileid="180" duration="150"/>
   </animation>
  </tile>
  <tile id="16">
   <animation>
    <frame tileid="16" duration="150"/>
    <frame tileid="49" duration="150"/>
    <frame tileid="82" duration="150"/>
    <frame tileid="115" duration="150"/>
    <frame tileid="148" duration="150"/>
    <frame tileid="181" duration="150"/>
   </animation>
  </tile>
  <tile id="17">
   <animation>
    <frame tileid="17" duration="150"/>
    <frame tileid="50" duration="150"/>
    <frame tileid="83" duration="150"/>
    <frame tileid="116" duration="150"/>
    <frame tileid="149" duration="150"/>
    <frame tileid="182" duration="150"/>
   </animation>
  </tile>
  <tile id="18">
   <animation>
    <frame tileid="18" duration="150"/>
    <frame tileid="51" duration="150"/>
    <frame tileid="84" duration="150"/>
    <frame tileid="117" duration="150"/>
    <frame tileid="150" duration="150"/>
    <frame tileid="183" duration="150"/>
   </animation>
  </tile>
  <tile id="19">
   <animation>
    <frame tileid="19" duration="150"/>
    <frame tileid="52" duration="150"/>
    <frame tileid="85" duration="150"/>
    <frame tileid="118" duration="150"/>
    <frame tileid="151" duration="150"/>
    <frame tileid="184" duration="150"/>
   </animation>
  </tile>
  <tile id="20">
   <animation>
    <frame tileid="20" duration="150"/>
    <frame tileid="53" duration="150"/>
    <frame tileid="86" duration="150"/>
    <frame tileid="119" duration="150"/>
    <frame tileid="152" duration="150"/>
    <frame tileid="185" duration="150"/>
   </animation>
  </tile>
  <tile id="21">
   <animation>
    <frame tileid="21" duration="150"/>
    <frame tileid="54" duration="150"/>
    <frame tileid="87" duration="150"/>
    <frame tileid="120" duration="150"/>
    <frame tileid="153" duration="150"/>
    <frame tileid="186" duration="150"/>
   </animation>
  </tile>
  <tile id="22">
   <animation>
    <frame tileid="22" duration="150"/>
    <frame tileid="55" duration="150"/>
    <frame tileid="88" duration="150"/>
    <frame tileid="121" duration="150"/>
    <frame tileid="154" duration="150"/>
    <frame tileid="187" duration="150"/>
   </animation>
  </tile>
  <tile id="23">
   <animation>
    <frame tileid="23" duration="150"/>
    <frame tileid="56" duration="150"/>
    <frame tileid="89" duration="150"/>
    <frame tileid="122" duration="150"/>
    <frame tileid="155" duration="150"/>
    <frame tileid="188" duration="150"/>
   </animation>
  </tile>
  <tile id="24">
   <animation>
    <frame tileid="24" duration="150"/>
    <frame tileid="57" duration="150"/>
    <frame tileid="90" duration="150"/>
    <frame tileid="123" duration="150"/>
    <frame tileid="156" duration="150"/>
    <frame tileid="189" duration="150"/>
   </animation>
  </tile>
  <tile id="25">
   <animation>
    <frame tileid="25" duration="150"/>
    <frame tileid="58" duration="150"/>
    <frame tileid="91" duration="150"/>
    <frame tileid="124" duration="150"/>
    <frame tileid="157" duration="150"/>
    <frame tileid="190" duration="150"/>
   </animation>
  </tile>
  <tile id="26">
   <animation>
    <frame tileid="26" duration="150"/>
    <frame tileid="59" duration="150"/>
    <frame tileid="92" duration="150"/>
    <frame tileid="125" duration="150"/>
    <frame tileid="158" duration="150"/>
    <frame tileid="191" duration="150"/>
   </animation>
  </tile>
  <tile id="27">
   <animation>
    <frame tileid="27" duration="150"/>
    <frame tileid="60" duration="150"/>
    <frame tileid="93" duration="150"/>
    <frame tileid="126" duration="150"/>
    <frame tileid="159" duration="150"/>
    <frame tileid="192" duration="150"/>
   </animation>
  </tile>
  <tile id="28">
   <animation>
    <frame tileid="28" duration="150"/>
    <frame tileid="61" duration="150"/>
    <frame tileid="94" duration="150"/>
    <frame tileid="127" duration="150"/>
    <frame tileid="160" duration="150"/>
    <frame tileid="193" duration="150"/>
   </animation>
  </tile>
  <tile id="29">
   <animation>
    <frame tileid="29" duration="150"/>
    <frame tileid="62" duration="150"/>
    <frame tileid="95" duration="150"/>
    <frame tileid="128" duration="150"/>
    <frame tileid="161" duration="150"/>
    <frame tileid="194" duration="150"/>
   </animation>
  </tile>
  <tile id="30">
   <animation>
    <frame tileid="30" duration="150"/>
    <frame tileid="63" duration="150"/>
    <frame tileid="96" duration="150"/>
    <frame tileid="129" duration="150"/>
    <frame tileid="162" duration="150"/>
    <frame tileid="195" duration="150"/>
   </animation>
  </tile>
  <tile id="31">
   <animation>
    <frame tileid="31" duration="150"/>
    <frame tileid="64" duration="150"/>
    <frame tileid="97" duration="150"/>
    <frame tileid="130" duration="150"/>
    <frame tileid="163" duration="150"/>
    <frame tileid="196" duration="150"/>
   </animation>
  </tile>
  <tile id="32">
   <animation>
    <frame tileid="32" duration="150"/>
    <frame tileid="65" duration="150"/>
    <frame tileid="98" duration="150"/>
    <frame tileid="131" duration="150"/>
    <frame tileid="164" duration="150"/>
    <frame tileid="197" duration="150"/>
   </animation>
  </tile>
 </tileset>
 <tileset firstgid="4626" name="doors_lever_chest_animation_same_but_v2" tilewidth="16" tileheight="16" tilecount="120" columns="10">
  <image source="doors_lever_chest_animation.png" width="160" height="192"/>
 </tileset>
 <tileset firstgid="4746" name="fire_regioen_small_1" tilewidth="16" tileheight="16" tilecount="384" columns="24">
  <image source="fire_regioen_small_1.png" width="384" height="256"/>
  <tile id="26">
   <animation>
    <frame tileid="26" duration="90"/>
    <frame tileid="34" duration="90"/>
    <frame tileid="42" duration="90"/>
    <frame tileid="218" duration="90"/>
    <frame tileid="226" duration="90"/>
    <frame tileid="234" duration="90"/>
   </animation>
  </tile>
  <tile id="27">
   <animation>
    <frame tileid="27" duration="90"/>
    <frame tileid="35" duration="90"/>
    <frame tileid="43" duration="90"/>
    <frame tileid="219" duration="90"/>
    <frame tileid="227" duration="90"/>
    <frame tileid="235" duration="90"/>
   </animation>
  </tile>
  <tile id="28">
   <animation>
    <frame tileid="28" duration="90"/>
    <frame tileid="36" duration="90"/>
    <frame tileid="44" duration="90"/>
    <frame tileid="220" duration="90"/>
    <frame tileid="228" duration="90"/>
    <frame tileid="236" duration="90"/>
   </animation>
  </tile>
  <tile id="29">
   <animation>
    <frame tileid="29" duration="90"/>
    <frame tileid="37" duration="90"/>
    <frame tileid="45" duration="90"/>
    <frame tileid="221" duration="90"/>
    <frame tileid="229" duration="90"/>
    <frame tileid="237" duration="90"/>
   </animation>
  </tile>
  <tile id="30">
   <animation>
    <frame tileid="30" duration="90"/>
    <frame tileid="38" duration="90"/>
    <frame tileid="46" duration="90"/>
    <frame tileid="222" duration="90"/>
    <frame tileid="230" duration="90"/>
    <frame tileid="238" duration="90"/>
   </animation>
  </tile>
  <tile id="49">
   <animation>
    <frame tileid="49" duration="90"/>
    <frame tileid="57" duration="90"/>
    <frame tileid="65" duration="90"/>
    <frame tileid="241" duration="90"/>
    <frame tileid="249" duration="90"/>
    <frame tileid="257" duration="90"/>
   </animation>
  </tile>
  <tile id="50">
   <animation>
    <frame tileid="50" duration="90"/>
    <frame tileid="58" duration="90"/>
    <frame tileid="66" duration="90"/>
    <frame tileid="242" duration="90"/>
    <frame tileid="250" duration="90"/>
    <frame tileid="258" duration="90"/>
   </animation>
  </tile>
  <tile id="51">
   <animation>
    <frame tileid="51" duration="90"/>
    <frame tileid="59" duration="90"/>
    <frame tileid="67" duration="90"/>
    <frame tileid="243" duration="90"/>
    <frame tileid="251" duration="90"/>
    <frame tileid="259" duration="90"/>
   </animation>
  </tile>
  <tile id="52">
   <animation>
    <frame tileid="52" duration="90"/>
    <frame tileid="60" duration="90"/>
    <frame tileid="68" duration="90"/>
    <frame tileid="244" duration="90"/>
    <frame tileid="252" duration="90"/>
    <frame tileid="260" duration="90"/>
   </animation>
  </tile>
  <tile id="53">
   <animation>
    <frame tileid="53" duration="90"/>
    <frame tileid="61" duration="90"/>
    <frame tileid="69" duration="90"/>
    <frame tileid="245" duration="90"/>
    <frame tileid="253" duration="90"/>
    <frame tileid="261" duration="90"/>
   </animation>
  </tile>
  <tile id="54">
   <animation>
    <frame tileid="54" duration="90"/>
    <frame tileid="62" duration="90"/>
    <frame tileid="70" duration="90"/>
    <frame tileid="246" duration="90"/>
    <frame tileid="254" duration="90"/>
    <frame tileid="262" duration="90"/>
   </animation>
  </tile>
  <tile id="55">
   <animation>
    <frame tileid="55" duration="90"/>
    <frame tileid="63" duration="90"/>
    <frame tileid="71" duration="90"/>
    <frame tileid="247" duration="90"/>
    <frame tileid="255" duration="90"/>
    <frame tileid="263" duration="90"/>
   </animation>
  </tile>
  <tile id="72">
   <animation>
    <frame tileid="72" duration="90"/>
    <frame tileid="80" duration="90"/>
    <frame tileid="88" duration="90"/>
    <frame tileid="264" duration="90"/>
    <frame tileid="272" duration="90"/>
    <frame tileid="280" duration="90"/>
   </animation>
  </tile>
  <tile id="73">
   <animation>
    <frame tileid="73" duration="90"/>
    <frame tileid="81" duration="90"/>
    <frame tileid="89" duration="90"/>
    <frame tileid="265" duration="90"/>
    <frame tileid="273" duration="90"/>
    <frame tileid="281" duration="90"/>
   </animation>
  </tile>
  <tile id="74">
   <animation>
    <frame tileid="74" duration="90"/>
    <frame tileid="82" duration="90"/>
    <frame tileid="90" duration="90"/>
    <frame tileid="266" duration="90"/>
    <frame tileid="274" duration="90"/>
    <frame tileid="282" duration="90"/>
   </animation>
  </tile>
  <tile id="75">
   <animation>
    <frame tileid="75" duration="90"/>
    <frame tileid="83" duration="90"/>
    <frame tileid="91" duration="90"/>
    <frame tileid="267" duration="90"/>
    <frame tileid="275" duration="90"/>
    <frame tileid="283" duration="90"/>
   </animation>
  </tile>
  <tile id="76">
   <animation>
    <frame tileid="76" duration="90"/>
    <frame tileid="84" duration="90"/>
    <frame tileid="92" duration="90"/>
    <frame tileid="268" duration="90"/>
    <frame tileid="276" duration="90"/>
    <frame tileid="284" duration="90"/>
   </animation>
  </tile>
  <tile id="77">
   <animation>
    <frame tileid="77" duration="90"/>
    <frame tileid="85" duration="90"/>
    <frame tileid="93" duration="90"/>
    <frame tileid="269" duration="90"/>
    <frame tileid="277" duration="90"/>
    <frame tileid="285" duration="90"/>
   </animation>
  </tile>
  <tile id="78">
   <animation>
    <frame tileid="78" duration="90"/>
    <frame tileid="86" duration="90"/>
    <frame tileid="94" duration="90"/>
    <frame tileid="270" duration="90"/>
    <frame tileid="278" duration="90"/>
    <frame tileid="286" duration="90"/>
   </animation>
  </tile>
  <tile id="79">
   <animation>
    <frame tileid="79" duration="90"/>
    <frame tileid="87" duration="90"/>
    <frame tileid="95" duration="90"/>
    <frame tileid="271" duration="90"/>
    <frame tileid="279" duration="90"/>
    <frame tileid="287" duration="90"/>
   </animation>
  </tile>
  <tile id="96">
   <animation>
    <frame tileid="96" duration="90"/>
    <frame tileid="104" duration="90"/>
    <frame tileid="112" duration="90"/>
    <frame tileid="288" duration="90"/>
    <frame tileid="296" duration="90"/>
    <frame tileid="304" duration="90"/>
   </animation>
  </tile>
  <tile id="97">
   <animation>
    <frame tileid="97" duration="90"/>
    <frame tileid="105" duration="90"/>
    <frame tileid="113" duration="90"/>
    <frame tileid="289" duration="90"/>
    <frame tileid="297" duration="90"/>
    <frame tileid="305" duration="90"/>
   </animation>
  </tile>
  <tile id="98">
   <animation>
    <frame tileid="98" duration="90"/>
    <frame tileid="106" duration="90"/>
    <frame tileid="114" duration="90"/>
    <frame tileid="290" duration="90"/>
    <frame tileid="298" duration="90"/>
    <frame tileid="306" duration="90"/>
   </animation>
  </tile>
  <tile id="99">
   <animation>
    <frame tileid="99" duration="90"/>
    <frame tileid="107" duration="90"/>
    <frame tileid="115" duration="90"/>
    <frame tileid="291" duration="90"/>
    <frame tileid="299" duration="90"/>
    <frame tileid="307" duration="90"/>
   </animation>
  </tile>
  <tile id="100">
   <animation>
    <frame tileid="100" duration="90"/>
    <frame tileid="108" duration="90"/>
    <frame tileid="116" duration="90"/>
    <frame tileid="292" duration="90"/>
    <frame tileid="300" duration="90"/>
    <frame tileid="308" duration="90"/>
   </animation>
  </tile>
  <tile id="101">
   <animation>
    <frame tileid="101" duration="90"/>
    <frame tileid="109" duration="90"/>
    <frame tileid="117" duration="90"/>
    <frame tileid="293" duration="90"/>
    <frame tileid="301" duration="90"/>
    <frame tileid="309" duration="90"/>
   </animation>
  </tile>
  <tile id="102">
   <animation>
    <frame tileid="102" duration="90"/>
    <frame tileid="110" duration="90"/>
    <frame tileid="118" duration="90"/>
    <frame tileid="294" duration="90"/>
    <frame tileid="302" duration="90"/>
    <frame tileid="310" duration="90"/>
   </animation>
  </tile>
  <tile id="103">
   <animation>
    <frame tileid="103" duration="90"/>
    <frame tileid="111" duration="90"/>
    <frame tileid="119" duration="90"/>
    <frame tileid="295" duration="90"/>
    <frame tileid="303" duration="90"/>
    <frame tileid="311" duration="90"/>
   </animation>
  </tile>
  <tile id="120">
   <animation>
    <frame tileid="120" duration="90"/>
    <frame tileid="128" duration="90"/>
    <frame tileid="136" duration="90"/>
    <frame tileid="312" duration="90"/>
    <frame tileid="320" duration="90"/>
    <frame tileid="328" duration="90"/>
   </animation>
  </tile>
  <tile id="121">
   <animation>
    <frame tileid="121" duration="90"/>
    <frame tileid="129" duration="90"/>
    <frame tileid="137" duration="90"/>
    <frame tileid="313" duration="90"/>
    <frame tileid="321" duration="90"/>
    <frame tileid="329" duration="90"/>
   </animation>
  </tile>
  <tile id="122">
   <animation>
    <frame tileid="122" duration="90"/>
    <frame tileid="130" duration="90"/>
    <frame tileid="138" duration="90"/>
    <frame tileid="314" duration="90"/>
    <frame tileid="322" duration="90"/>
    <frame tileid="330" duration="90"/>
   </animation>
  </tile>
  <tile id="123">
   <animation>
    <frame tileid="123" duration="90"/>
    <frame tileid="131" duration="90"/>
    <frame tileid="139" duration="90"/>
    <frame tileid="315" duration="90"/>
    <frame tileid="323" duration="90"/>
    <frame tileid="331" duration="90"/>
   </animation>
  </tile>
  <tile id="124">
   <animation>
    <frame tileid="124" duration="90"/>
    <frame tileid="132" duration="90"/>
    <frame tileid="140" duration="90"/>
    <frame tileid="316" duration="90"/>
    <frame tileid="324" duration="90"/>
    <frame tileid="332" duration="90"/>
   </animation>
  </tile>
  <tile id="125">
   <animation>
    <frame tileid="125" duration="90"/>
    <frame tileid="133" duration="90"/>
    <frame tileid="141" duration="90"/>
    <frame tileid="317" duration="90"/>
    <frame tileid="325" duration="90"/>
    <frame tileid="333" duration="90"/>
   </animation>
  </tile>
  <tile id="126">
   <animation>
    <frame tileid="126" duration="90"/>
    <frame tileid="134" duration="90"/>
    <frame tileid="142" duration="90"/>
    <frame tileid="318" duration="90"/>
    <frame tileid="326" duration="90"/>
    <frame tileid="334" duration="90"/>
   </animation>
  </tile>
  <tile id="127">
   <animation>
    <frame tileid="127" duration="90"/>
    <frame tileid="135" duration="90"/>
    <frame tileid="143" duration="90"/>
    <frame tileid="319" duration="90"/>
    <frame tileid="327" duration="90"/>
    <frame tileid="335" duration="90"/>
   </animation>
  </tile>
  <tile id="144">
   <animation>
    <frame tileid="144" duration="90"/>
    <frame tileid="152" duration="90"/>
    <frame tileid="160" duration="90"/>
    <frame tileid="336" duration="90"/>
    <frame tileid="344" duration="90"/>
    <frame tileid="352" duration="90"/>
   </animation>
  </tile>
  <tile id="145">
   <animation>
    <frame tileid="145" duration="90"/>
    <frame tileid="153" duration="90"/>
    <frame tileid="161" duration="90"/>
    <frame tileid="337" duration="90"/>
    <frame tileid="345" duration="90"/>
    <frame tileid="353" duration="90"/>
   </animation>
  </tile>
  <tile id="146">
   <animation>
    <frame tileid="146" duration="90"/>
    <frame tileid="154" duration="90"/>
    <frame tileid="162" duration="90"/>
    <frame tileid="338" duration="90"/>
    <frame tileid="346" duration="90"/>
    <frame tileid="354" duration="90"/>
   </animation>
  </tile>
  <tile id="147">
   <animation>
    <frame tileid="147" duration="90"/>
    <frame tileid="155" duration="90"/>
    <frame tileid="163" duration="90"/>
    <frame tileid="339" duration="90"/>
    <frame tileid="347" duration="90"/>
    <frame tileid="355" duration="90"/>
   </animation>
  </tile>
  <tile id="149">
   <animation>
    <frame tileid="149" duration="90"/>
    <frame tileid="157" duration="90"/>
    <frame tileid="165" duration="90"/>
    <frame tileid="341" duration="90"/>
    <frame tileid="349" duration="90"/>
    <frame tileid="357" duration="90"/>
   </animation>
  </tile>
  <tile id="150">
   <animation>
    <frame tileid="150" duration="90"/>
    <frame tileid="158" duration="90"/>
    <frame tileid="166" duration="90"/>
    <frame tileid="342" duration="90"/>
    <frame tileid="350" duration="90"/>
    <frame tileid="358" duration="90"/>
   </animation>
  </tile>
  <tile id="151">
   <animation>
    <frame tileid="151" duration="90"/>
    <frame tileid="159" duration="90"/>
    <frame tileid="167" duration="90"/>
    <frame tileid="343" duration="90"/>
    <frame tileid="351" duration="90"/>
    <frame tileid="359" duration="90"/>
   </animation>
  </tile>
 </tileset>
 <tileset firstgid="5130" name="fire_regioen_small_2" tilewidth="16" tileheight="16" tilecount="150" columns="15">
  <image source="fire_regioen_small_2.png" width="240" height="160"/>
  <tile id="0">
   <animation>
    <frame tileid="0" duration="90"/>
    <frame tileid="5" duration="90"/>
    <frame tileid="10" duration="90"/>
    <frame tileid="75" duration="90"/>
    <frame tileid="80" duration="90"/>
    <frame tileid="85" duration="90"/>
   </animation>
  </tile>
  <tile id="1">
   <animation>
    <frame tileid="1" duration="90"/>
    <frame tileid="6" duration="90"/>
    <frame tileid="11" duration="90"/>
    <frame tileid="76" duration="90"/>
    <frame tileid="81" duration="90"/>
    <frame tileid="86" duration="90"/>
   </animation>
  </tile>
  <tile id="2">
   <animation>
    <frame tileid="2" duration="90"/>
    <frame tileid="7" duration="90"/>
    <frame tileid="12" duration="90"/>
    <frame tileid="77" duration="90"/>
    <frame tileid="82" duration="90"/>
    <frame tileid="87" duration="90"/>
   </animation>
  </tile>
  <tile id="3">
   <animation>
    <frame tileid="3" duration="90"/>
    <frame tileid="8" duration="90"/>
    <frame tileid="13" duration="90"/>
    <frame tileid="78" duration="90"/>
    <frame tileid="83" duration="90"/>
    <frame tileid="88" duration="90"/>
   </animation>
  </tile>
  <tile id="4">
   <animation>
    <frame tileid="4" duration="90"/>
    <frame tileid="9" duration="90"/>
    <frame tileid="14" duration="90"/>
    <frame tileid="79" duration="90"/>
    <frame tileid="84" duration="90"/>
    <frame tileid="89" duration="90"/>
   </animation>
  </tile>
  <tile id="15">
   <animation>
    <frame tileid="15" duration="90"/>
    <frame tileid="20" duration="90"/>
    <frame tileid="25" duration="90"/>
    <frame tileid="90" duration="90"/>
    <frame tileid="95" duration="90"/>
    <frame tileid="100" duration="90"/>
   </animation>
  </tile>
  <tile id="16">
   <animation>
    <frame tileid="16" duration="90"/>
    <frame tileid="21" duration="90"/>
    <frame tileid="26" duration="90"/>
    <frame tileid="91" duration="90"/>
    <frame tileid="96" duration="90"/>
    <frame tileid="101" duration="90"/>
   </animation>
  </tile>
  <tile id="17">
   <animation>
    <frame tileid="17" duration="90"/>
    <frame tileid="22" duration="90"/>
    <frame tileid="27" duration="90"/>
    <frame tileid="92" duration="90"/>
    <frame tileid="97" duration="90"/>
    <frame tileid="102" duration="90"/>
   </animation>
  </tile>
  <tile id="18">
   <animation>
    <frame tileid="18" duration="90"/>
    <frame tileid="23" duration="90"/>
    <frame tileid="28" duration="90"/>
    <frame tileid="93" duration="90"/>
    <frame tileid="98" duration="90"/>
    <frame tileid="103" duration="90"/>
   </animation>
  </tile>
  <tile id="19">
   <animation>
    <frame tileid="19" duration="90"/>
    <frame tileid="24" duration="90"/>
    <frame tileid="29" duration="90"/>
    <frame tileid="94" duration="90"/>
    <frame tileid="99" duration="90"/>
    <frame tileid="104" duration="90"/>
   </animation>
  </tile>
  <tile id="30">
   <animation>
    <frame tileid="30" duration="90"/>
    <frame tileid="35" duration="90"/>
    <frame tileid="40" duration="90"/>
    <frame tileid="105" duration="90"/>
    <frame tileid="110" duration="90"/>
    <frame tileid="115" duration="90"/>
   </animation>
  </tile>
  <tile id="31">
   <animation>
    <frame tileid="31" duration="90"/>
    <frame tileid="36" duration="90"/>
    <frame tileid="41" duration="90"/>
    <frame tileid="106" duration="90"/>
    <frame tileid="111" duration="90"/>
    <frame tileid="116" duration="90"/>
   </animation>
  </tile>
  <tile id="32">
   <animation>
    <frame tileid="32" duration="90"/>
    <frame tileid="37" duration="90"/>
    <frame tileid="42" duration="90"/>
    <frame tileid="107" duration="90"/>
    <frame tileid="112" duration="90"/>
    <frame tileid="117" duration="90"/>
   </animation>
  </tile>
  <tile id="33">
   <animation>
    <frame tileid="33" duration="90"/>
    <frame tileid="38" duration="90"/>
    <frame tileid="43" duration="90"/>
    <frame tileid="108" duration="90"/>
    <frame tileid="113" duration="90"/>
    <frame tileid="118" duration="90"/>
   </animation>
  </tile>
  <tile id="34">
   <animation>
    <frame tileid="34" duration="90"/>
    <frame tileid="39" duration="90"/>
    <frame tileid="44" duration="90"/>
    <frame tileid="109" duration="90"/>
    <frame tileid="114" duration="90"/>
    <frame tileid="119" duration="90"/>
   </animation>
  </tile>
  <tile id="45">
   <animation>
    <frame tileid="45" duration="90"/>
    <frame tileid="50" duration="90"/>
    <frame tileid="55" duration="90"/>
    <frame tileid="120" duration="90"/>
    <frame tileid="125" duration="90"/>
    <frame tileid="130" duration="90"/>
   </animation>
  </tile>
  <tile id="46">
   <animation>
    <frame tileid="46" duration="90"/>
    <frame tileid="51" duration="90"/>
    <frame tileid="56" duration="90"/>
    <frame tileid="121" duration="90"/>
    <frame tileid="126" duration="90"/>
    <frame tileid="131" duration="90"/>
   </animation>
  </tile>
  <tile id="47">
   <animation>
    <frame tileid="47" duration="90"/>
    <frame tileid="52" duration="90"/>
    <frame tileid="57" duration="90"/>
    <frame tileid="122" duration="90"/>
    <frame tileid="127" duration="90"/>
    <frame tileid="132" duration="90"/>
   </animation>
  </tile>
  <tile id="48">
   <animation>
    <frame tileid="48" duration="90"/>
    <frame tileid="53" duration="90"/>
    <frame tileid="58" duration="90"/>
    <frame tileid="123" duration="90"/>
    <frame tileid="128" duration="90"/>
    <frame tileid="133" duration="90"/>
   </animation>
  </tile>
  <tile id="49">
   <animation>
    <frame tileid="49" duration="90"/>
    <frame tileid="54" duration="90"/>
    <frame tileid="59" duration="90"/>
    <frame tileid="124" duration="90"/>
    <frame tileid="129" duration="90"/>
    <frame tileid="134" duration="90"/>
   </animation>
  </tile>
  <tile id="60">
   <animation>
    <frame tileid="60" duration="90"/>
    <frame tileid="65" duration="90"/>
    <frame tileid="70" duration="90"/>
    <frame tileid="135" duration="90"/>
    <frame tileid="140" duration="90"/>
    <frame tileid="145" duration="90"/>
   </animation>
  </tile>
  <tile id="61">
   <animation>
    <frame tileid="61" duration="90"/>
    <frame tileid="66" duration="90"/>
    <frame tileid="71" duration="90"/>
    <frame tileid="136" duration="90"/>
    <frame tileid="141" duration="90"/>
    <frame tileid="146" duration="90"/>
   </animation>
  </tile>
  <tile id="62">
   <animation>
    <frame tileid="62" duration="90"/>
    <frame tileid="67" duration="90"/>
    <frame tileid="72" duration="90"/>
    <frame tileid="137" duration="90"/>
    <frame tileid="142" duration="90"/>
    <frame tileid="147" duration="90"/>
   </animation>
  </tile>
  <tile id="63">
   <animation>
    <frame tileid="63" duration="90"/>
    <frame tileid="68" duration="90"/>
    <frame tileid="73" duration="90"/>
    <frame tileid="138" duration="90"/>
    <frame tileid="143" duration="90"/>
    <frame tileid="148" duration="90"/>
   </animation>
  </tile>
  <tile id="64">
   <animation>
    <frame tileid="64" duration="90"/>
    <frame tileid="69" duration="90"/>
    <frame tileid="74" duration="90"/>
    <frame tileid="139" duration="90"/>
    <frame tileid="144" duration="90"/>
    <frame tileid="149" duration="90"/>
   </animation>
  </tile>
 </tileset>
 <tileset firstgid="5280" name="explosive_barrel_64px" tilewidth="16" tileheight="16" tilecount="16" columns="4">
  <image source="explosive_barrel_64px.png" width="64" height="64"/>
 </tileset>
 <layer id="1" name="floor" width="40" height="24">
  <data encoding="csv">
80,80,80,80,80,80,80,80,80,80,80,80,80,80,80,80,80,80,80,80,80,80,80,80,80,80,80,80,80,80,80,80,80,80,80,80,80,80,80,80,
80,80,80,80,80,80,80,80,80,80,80,80,80,80,80,80,80,80,80,80,80,80,80,80,80,80,80,80,80,80,80,80,80,80,80,80,80,80,80,80,
80,80,80,80,80,80,80,80,80,80,80,80,80,80,80,80,80,80,80,80,80,80,80,80,80,80,80,285,80,80,80,80,80,80,80,80,80,80,80,80,
80,80,80,80,80,80,80,80,80,80,80,80,80,80,80,80,285,80,80,80,80,80,80,80,80,80,80,80,80,80,80,80,80,80,80,80,80,80,80,80,
80,80,80,80,80,80,80,80,80,80,80,80,80,80,80,80,80,80,80,80,80,80,80,80,80,80,80,80,80,80,80,80,80,80,80,80,80,80,80,80,
80,80,80,299,80,80,80,298,80,80,80,80,80,80,80,80,80,80,80,80,80,80,80,80,80,80,80,80,80,80,80,80,286,80,80,80,80,80,80,80,
80,80,80,80,80,80,80,80,80,80,80,299,80,80,80,80,80,80,80,80,80,80,80,80,80,80,80,80,80,80,80,80,80,80,80,80,80,80,80,80,
80,80,80,80,80,80,80,80,80,80,80,80,80,80,80,80,80,80,298,80,80,80,80,80,80,80,80,80,80,80,80,80,80,80,80,80,80,80,80,80,
80,80,80,80,80,80,80,80,80,80,80,80,80,80,80,80,80,80,80,80,80,80,80,80,80,80,80,285,80,80,80,80,80,80,80,80,80,80,80,80,
80,80,80,80,80,80,80,80,80,80,80,80,80,285,80,80,80,80,80,80,80,80,80,80,80,80,80,80,80,80,80,80,80,80,80,80,80,80,80,80,
80,80,80,80,80,80,80,80,80,80,285,80,80,80,80,80,80,80,80,80,80,80,80,80,80,80,80,80,80,80,80,80,80,286,80,80,80,80,80,80,
80,80,80,80,80,80,80,80,80,80,80,80,80,80,80,80,80,80,80,80,80,80,80,299,80,80,80,80,298,80,80,80,80,80,80,80,80,80,80,80,
80,80,80,80,80,80,80,80,80,80,80,80,80,80,80,80,80,80,285,80,80,80,80,80,80,80,80,80,80,80,80,80,80,80,80,80,80,80,80,80,
80,80,80,80,80,298,80,80,80,80,80,80,80,80,80,80,80,80,80,80,80,80,80,80,80,80,80,80,80,80,80,80,80,80,80,80,80,80,80,80,
80,80,80,80,80,80,80,80,80,80,80,80,80,80,80,80,80,80,80,80,80,299,80,80,80,80,80,80,80,80,80,80,80,80,286,80,80,80,80,80,
80,80,80,80,80,80,80,80,80,299,80,80,80,80,80,80,286,80,80,80,80,80,80,80,80,80,286,80,80,80,80,80,80,80,80,80,80,80,80,80,
80,80,80,80,80,80,80,80,80,80,80,80,80,80,80,80,80,80,80,80,80,80,80,80,80,80,80,80,80,80,80,80,80,80,80,80,80,80,80,80,
80,80,80,80,80,80,80,80,80,80,80,80,80,80,80,80,80,80,80,80,80,80,80,80,80,80,80,80,298,80,80,80,80,80,80,80,80,80,80,80,
80,80,80,80,80,80,80,80,80,80,80,80,80,80,80,80,80,80,80,80,80,285,80,80,80,80,80,80,80,80,80,80,80,80,80,80,80,80,80,80,
80,80,80,286,80,80,80,80,80,80,285,80,80,80,80,80,80,80,80,80,80,80,80,80,80,80,80,80,80,80,80,80,80,80,80,80,80,80,80,80,
80,80,80,80,80,80,80,80,80,80,80,80,80,80,80,80,80,80,80,80,80,80,80,80,80,80,80,80,80,80,80,80,80,80,80,80,80,80,80,80,
80,80,80,80,80,80,80,80,80,80,80,80,80,80,80,80,80,80,80,286,80,80,80,80,80,80,80,80,299,80,80,80,80,80,80,80,80,80,80,80,
80,80,80,80,80,80,80,80,80,80,80,80,80,80,80,80,80,80,80,80,80,80,80,80,80,80,80,80,80,80,80,80,80,80,80,80,80,80,80,80,
80,80,80,80,80,80,80,80,80,80,80,80,80,80,80,80,80,80,80,80,80,80,80,80,80,80,80,80,80,80,80,80,80,80,80,80,80,80,80,80
</data>
 </layer>
 <layer id="3" name="walls" width="40" height="24">
  <data encoding="csv">
2684354613,3221225526,3221225526,3221225526,3221225526,3221225526,3221225526,3221225526,3221225526,3221225526,3221225526,3221225526,3221225526,3221225526,3221225526,3221225526,3221225526,3221225526,3221225526,3221225526,3221225526,3221225526,3221225526,3221225526,3221225526,3221225526,3221225526,3221225526,3221225526,3221225526,3221225526,3221225526,3221225526,3221225526,3221225526,3221225526,3221225526,3221225526,3221225526,3221225525,
40,41,54,54,54,54,54,54,54,54,54,54,54,54,54,54,54,54,54,54,54,54,54,54,54,54,54,54,54,54,54,54,54,54,54,54,54,54,41,42,
40,42,0,0,0,0,0,0,0,0,0,0,0,0,0,0,0,0,0,0,0,0,0,0,0,0,0,0,0,0,0,0,0,0,0,0,0,0,40,42,
40,42,0,0,0,0,0,0,0,0,0,0,0,0,0,0,0,0,0,0,0,0,0,0,0,0,0,0,0,0,0,0,0,0,0,0,0,0,40,42,
40,42,0,0,0,0,0,0,0,0,0,0,0,0,0,0,0,0,0,0,0,0,0,0,0,0,0,0,0,0,0,0,0,0,0,0,0,0,40,42,
40,42,0,0,0,0,0,0,0,0,0,0,0,0,0,0,0,0,0,0,0,0,0,0,0,0,0,0,0,0,0,0,0,0,0,0,0,0,40,42,
40,42,0,0,0,0,0,0,0,0,0,0,0,0,0,0,0,0,0,0,0,0,0,0,0,0,0,0,0,0,0,0,0,0,0,0,0,0,40,42,
40,42,0,0,0,0,0,0,0,0,0,0,0,0,0,0,0,0,0,0,0,0,0,0,0,0,0,0,0,0,0,0,0,0,0,0,0,0,40,42,
40,42,0,0,0,0,0,0,0,0,0,0,0,0,0,0,0,0,0,0,0,0,0,0,0,0,0,0,0,0,0,0,0,0,0,0,0,0,40,42,
40,42,0,0,0,0,0,0,0,0,0,0,0,0,0,0,0,0,0,0,0,0,0,0,0,0,0,0,0,0,0,0,0,0,0,0,0,0,40,42,
40,42,0,0,0,0,0,0,0,0,0,0,0,0,0,0,0,0,0,0,0,0,0,0,0,0,0,0,0,0,0,0,0,0,0,0,0,0,40,42,
40,42,0,0,0,0,0,0,0,0,0,0,0,0,0,0,0,0,0,0,0,0,0,0,0,0,0,0,0,0,0,0,0,0,0,0,0,0,40,42,
40,42,0,0,0,0,0,0,0,0,0,0,0,0,0,0,0,0,0,0,0,0,0,0,0,0,0,0,0,0,0,0,0,0,0,0,0,0,40,42,
40,42,0,0,0,0,0,0,0,0,0,0,0,0,0,0,0,0,0,0,0,0,0,0,0,0,0,0,0,0,0,0,0,0,0,0,0,0,40,42,
40,42,0,0,0,0,0,0,0,0,0,0,0,0,0,0,0,0,0,0,0,0,0,0,0,0,0,0,0,0,0,0,0,0,0,0,0,0,40,42,
40,42,0,0,0,0,0,0,0,0,0,0,0,0,0,0,0,0,0,0,0,0,0,0,0,0,0,0,0,0,0,0,0,0,0,0,0,0,40,42,
40,42,0,0,0,0,0,0,0,0,0,0,0,0,0,0,0,0,0,0,0,0,0,0,0,0,0,0,0,0,0,0,0,0,0,0,0,0,40,42,
40,42,0,0,0,0,0,0,0,0,0,0,0,0,0,0,0,0,0,0,0,0,0,0,0,0,0,0,0,0,0,0,0,0,0,0,0,0,40,42,
40,42,0,0,0,0,0,0,0,0,0,0,0,0,0,0,0,0,0,0,0,0,0,0,0,0,0,0,0,0,0,0,0,0,0,0,0,0,40,42,
40,42,0,0,0,0,0,0,0,0,0,0,0,0,0,0,0,0,0,0,0,0,0,0,0,0,0,0,0,0,0,0,0,0,0,0,0,0,40,42,
40,42,0,0,0,0,0,0,0,0,0,0,0,0,0,0,0,0,0,0,0,0,0,0,0,0,0,0,0,0,0,0,0,0,0,0,0,0,40,42,
40,42,0,0,0,0,0,0,0,0,0,0,0,0,0,0,0,0,0,0,0,0,0,0,0,0,0,0,0,0,0,0,0,0,0,0,0,0,40,42,
40,41,3221225526,3221225526,3221225526,3221225526,3221225526,3221225526,3221225526,3221225526,3221225526,3221225526,3221225526,3221225526,3221225526,3221225526,3221225526,3221225526,3221225526,3221225526,3221225526,3221225526,3221225526,3221225526,3221225526,3221225526,3221225526,3221225526,3221225526,3221225526,3221225526,3221225526,3221225526,3221225526,3221225526,3221225526,3221225526,3221225526,41,42,
53,54,54,54,54,54,54,54,54,54,54,54,54,54,54,54,54,54,54,54,54,54,54,54,54,54,54,54,54,54,54,54,54,54,54,54,54,54,54,55
</data>
 </layer>
 <layer id="2" name="wall corners" width="40" height="24">
  <data encoding="csv">
0,0,0,0,0,0,0,0,0,0,0,0,0,0,0,0,0,0,0,0,0,0,0,0,0,0,0,0,0,0,0,0,0,0,0,0,0,0,0,0,
0,1,2,3,0,0,0,0,0,0,0,0,0,0,0,0,0,0,0,0,0,0,0,0,0,0,0,0,0,0,0,0,0,0,0,0,1,2,3,0,
0,14,15,16,0,0,0,0,0,0,0,0,0,0,0,0,0,0,0,0,0,0,0,0,0,0,0,0,0,0,0,0,0,0,0,0,14,15,16,0,
0,27,28,29,0,0,0,0,0,0,0,0,0,0,0,0,0,0,0,0,0,0,0,0,0,0,0,0,0,0,0,0,0,0,0,0,27,28,29,0,
0,40,41,42,0,0,0,0,0,0,0,0,0,0,0,0,0,0,0,0,0,0,0,0,0,0,0,0,0,0,0,0,0,0,0,0,40,41,42,0,
0,53,54,55,0,0,0,0,0,0,0,0,0,0,0,0,0,0,0,0,0,0,0,0,0,0,0,0,0,0,0,0,0,0,0,0,53,54,55,0,
0,0,0,0,0,0,0,0,0,0,0,0,0,0,0,0,0,0,0,0,0,0,0,0,0,0,0,0,0,0,0,0,0,0,0,0,0,0,0,0,
0,0,0,0,0,0,0,0,0,0,0,0,0,0,0,0,0,0,0,0,0,0,0,0,0,0,0,0,0,0,0,0,0,0,0,0,0,0,0,0,
0,0,0,0,0,0,0,0,0,0,0,0,0,0,0,0,0,0,0,0,0,0,0,0,0,0,0,0,0,0,0,0,0,0,0,0,0,0,0,0,
0,0,0,0,0,0,0,0,0,0,0,0,0,0,0,0,0,0,0,0,0,0,0,0,0,0,0,0,0,0,0,0,0,0,0,0,0,0,0,0,
0,0,0,0,0,0,0,0,0,0,0,0,0,0,0,0,0,0,0,0,0,0,0,0,0,0,0,0,0,0,0,0,0,0,0,0,0,0,0,0,
0,0,0,0,0,0,0,0,0,0,0,0,0,0,0,0,0,0,0,0,0,0,0,0,0,0,0,0,0,0,0,0,0,0,0,0,0,0,0,0,
0,0,0,0,0,0,0,0,0,0,0,0,0,0,0,0,0,0,0,0,0,0,0,0,0,0,0,0,0,0,0,0,0,0,0,0,0,0,0,0,
0,0,0,0,0,0,0,0,0,0,0,0,0,0,0,0,0,0,0,0,0,0,0,0,0,0,0,0,0,0,0,0,0,0,0,0,0,0,0,0,
0,0,0,0,0,0,0,0,0,0,0,0,0,0,0,0,0,0,0,0,0,0,0,0,0,0,0,0,0,0,0,0,0,0,0,0,0,0,0,0,
0,0,0,0,0,0,0,0,0,0,0,0,0,0,0,0,0,0,0,0,0,0,0,0,0,0,0,0,0,0,0,0,0,0,0,0,0,0,0,0,
0,0,0,0,0,0,0,0,0,0,0,0,0,0,0,0,0,0,0,0,0,0,0,0,0,0,0,0,0,0,0,0,0,0,0,0,0,0,0,0,
0,0,0,0,0,0,0,0,0,0,0,0,0,0,0,0,0,0,0,0,0,0,0,0,0,0,0,0,0,0,0,0,0,0,0,0,0,0,0,0,
0,3221225527,3221225526,3221225525,0,0,0,0,0,0,0,0,0,0,0,0,0,0,0,0,0,0,0,0,0,0,0,0,0,0,0,0,0,0,0,0,3221225527,3221225526,3221225525,0,
0,3221225514,3221225513,3221225512,0,0,0,0,0,0,0,0,0,0,0,0,0,0,0,0,0,0,0,0,0,0,0,0,0,0,0,0,0,0,0,0,3221225514,3221225513,3221225512,0,
0,3221225501,3221225500,3221225499,0,0,0,0,0,0,0,0,0,0,0,0,0,0,0,0,0,0,0,0,0,0,0,0,0,0,0,0,0,0,0,0,3221225501,3221225500,3221225499,0,
0,3221225488,3221225487,3221225486,0,0,0,0,0,0,0,0,0,0,0,0,0,0,0,0,0,0,0,0,0,0,0,0,0,0,0,0,0,0,0,0,3221225488,3221225487,3221225486,0,
0,3221225475,3221225474,3221225473,0,0,0,0,0,0,0,0,0,0,0,0,0,0,0,0,0,0,0,0,0,0,0,0,0,0,0,0,0,0,0,0,3221225475,3221225474,3221225473,0,
0,0,0,0,0,0,0,0,0,0,0,0,0,0,0,0,0,0,0,0,0,0,0,0,0,0,0,0,0,0,0,0,0,0,0,0,0,0,0,0
</data>
 </layer>
 <layer id="5" name="lights" width="40" height="24">
  <data encoding="csv">
0,0,0,0,0,0,0,0,0,0,0,0,0,0,0,0,0,0,0,0,0,0,0,0,0,0,0,0,0,0,0,0,0,0,0,0,0,0,0,0,
0,4436,4437,4438,0,0,0,0,0,0,0,0,0,0,0,0,0,0,0,0,0,0,0,0,0,0,0,0,0,0,0,0,0,0,0,0,4436,4437,4438,0,
0,4447,4448,4449,0,0,0,0,0,0,0,0,0,0,0,0,0,0,0,0,0,0,0,0,0,0,0,0,0,0,0,0,0,0,0,0,4447,4448,4449,0,
0,4458,4459,4460,0,0,0,0,0,0,0,0,0,0,0,0,0,0,0,0,0,0,0,0,0,0,0,0,0,0,0,0,0,0,0,0,4458,4459,4460,0,
0,0,0,0,0,0,0,0,0,0,0,0,0,0,0,0,0,0,0,0,0,0,0,0,0,0,0,0,0,0,0,0,0,0,0,0,0,0,0,0,
0,0,0,0,0,0,0,0,0,0,0,0,0,0,0,0,0,0,0,0,0,0,0,0,0,0,0,0,0,0,0,0,0,0,0,0,0,0,0,0,
0,0,0,0,0,0,0,0,0,0,0,0,0,0,0,0,0,0,0,0,0,0,0,0,0,0,0,0,0,0,0,0,0,0,0,0,0,0,0,0,
0,0,0,0,0,0,0,0,0,0,0,0,0,0,0,0,0,0,0,0,0,0,0,0,0,0,0,0,0,0,0,0,0,0,0,0,0,0,0,0,
0,0,0,0,0,0,0,0,0,0,0,0,0,0,0,0,0,0,0,0,0,0,0,0,0,0,0,0,0,0,0,0,0,0,0,0,0,0,0,0,
0,0,0,0,0,0,0,0,0,0,0,0,0,0,0,0,0,0,0,0,0,0,0,0,0,0,0,0,0,0,0,0,0,0,0,0,0,0,0,0,
0,0,0,0,0,0,0,0,0,0,0,0,0,0,0,0,0,0,0,0,0,0,0,0,0,0,0,0,0,0,0,0,0,0,0,0,0,0,0,0,
0,0,0,0,0,0,0,0,0,0,0,0,0,0,0,0,0,0,0,0,0,0,0,0,0,0,0,0,0,0,0,0,0,0,0,0,0,0,0,0,
0,0,0,0,0,0,0,0,0,0,0,0,0,0,0,0,0,0,0,0,0,0,0,0,0,0,0,0,0,0,0,0,0,0,0,0,0,0,0,0,
0,0,0,0,0,0,0,0,0,0,0,0,0,0,0,0,0,0,0,0,0,0,0,0,0,0,0,0,0,0,0,0,0,0,0,0,0,0,0,0,
0,0,0,0,0,0,0,0,0,0,0,0,0,0,0,0,0,0,0,0,0,0,0,0,0,0,0,0,0,0,0,0,0,0,0,0,0,0,0,0,
0,0,0,0,0,0,0,0,0,0,0,0,0,0,0,0,0,0,0,0,0,0,0,0,0,0,0,0,0,0,0,0,0,0,0,0,0,0,0,0,
0,0,0,0,0,0,0,0,0,0,0,0,0,0,0,0,0,0,0,0,0,0,0,0,0,0,0,0,0,0,0,0,0,0,0,0,0,0,0,0,
0,0,0,0,0,0,0,0,0,0,0,0,0,0,0,0,0,0,0,0,0,0,0,0,0,0,0,0,0,0,0,0,0,0,0,0,0,0,0,0,
0,0,0,0,0,0,0,0,0,0,0,0,0,0,0,0,0,0,0,0,0,0,0,0,0,0,0,0,0,0,0,0,0,0,0,0,0,0,0,0,
0,0,0,0,0,0,0,0,0,0,0,0,0,0,0,0,0,0,0,0,0,0,0,0,0,0,0,0,0,0,0,0,0,0,0,0,0,0,0,0,
0,4436,4437,4438,0,0,0,0,0,0,0,0,0,0,0,0,0,0,0,0,0,0,0,0,0,0,0,0,0,0,0,0,0,0,0,0,4436,4437,4438,0,
0,4447,4448,4449,0,0,0,0,0,0,0,0,0,0,0,0,0,0,0,0,0,0,0,0,0,0,0,0,0,0,0,0,0,0,0,0,4447,4448,4449,0,
0,4458,4459,4460,0,0,0,0,0,0,0,0,0,0,0,0,0,0,0,0,0,0,0,0,0,0,0,0,0,0,0,0,0,0,0,0,4458,4459,4460,0,
0,0,0,0,0,0,0,0,0,0,0,0,0,0,0,0,0,0,0,0,0,0,0,0,0,0,0,0,0,0,0,0,0,0,0,0,0,0,0,0
</data>
 </layer>
 <objectgroup id="7" name="object layer doors and walls">
  <object id="1" name="door_north" x="304" y="0" width="32" height="32"/>
  <object id="2" name="door_south" x="304" y="352" width="32" height="32"/>
  <object id="4" name="door_west" x="0" y="176" width="32" height="32"/>
  <object id="5" name="door_east" x="608" y="176" width="32" height="32"/>
  <object id="6" name="wall_boundary" x="0" y="0" width="304" height="32"/>
  <object id="12" name="wall_boundary" x="336" y="0" width="304" height="32"/>
  <object id="13" name="wall_boundary" x="336" y="352" width="304" height="32"/>
  <object id="14" name="wall_boundary" x="0" y="352" width="304" height="32"/>
  <object id="15" name="wall_boundary" x="0" y="32" width="32" height="144"/>
  <object id="16" name="wall_boundary" x="0" y="208" width="32" height="144"/>
  <object id="17" name="wall_boundary" x="608" y="32" width="32" height="144"/>
  <object id="19" name="wall_boundary" x="608" y="208" width="32" height="144"/>
  <object id="20" name="wall_boundary" x="32" y="32" width="32" height="64"/>
  <object id="21" name="wall_boundary" x="32" y="288" width="32" height="64"/>
  <object id="22" name="wall_boundary" x="576" y="32" width="32" height="64"/>
  <object id="23" name="wall_boundary" x="576" y="288" width="32" height="64"/>
 </objectgroup>
 <objectgroup id="15" name="object layer doors open">
  <object id="77" name="door_north_open" gid="4692" x="304" y="16" width="16" height="16"/>
  <object id="78" name="door_north_open" gid="4702" x="304.063" y="32" width="16" height="16"/>
  <object id="79" name="door_north_open" gid="4693" x="320.063" y="16" width="16" height="16"/>
  <object id="80" name="door_north_open" gid="4703" x="320.063" y="32" width="16" height="16"/>
  <object id="81" name="door_south_open" gid="4692" x="336" y="368" width="16" height="16" rotation="180"/>
  <object id="82" name="door_south_open" gid="4693" x="320" y="368.063" width="16" height="16" rotation="180"/>
  <object id="83" name="door_south_open" gid="4703" x="320" y="352" width="16" height="16" rotation="180"/>
  <object id="84" name="door_south_open" gid="4702" x="336" y="352" width="16" height="16" rotation="180"/>
  <object id="85" name="door_west_open" gid="4692" x="16" y="208" width="16" height="16" rotation="-90"/>
  <object id="87" name="door_west_open" gid="4693" x="16" y="192" width="16" height="16" rotation="-90"/>
  <object id="88" name="door_west_open" gid="4702" x="32" y="208" width="16" height="16" rotation="-90"/>
  <object id="89" name="door_west_open" gid="4703" x="32" y="192" width="16" height="16" rotation="-90"/>
  <object id="90" name="door_east_open" gid="4692" x="624" y="176" width="16" height="16" rotation="90"/>
  <object id="91" name="door_east_open" gid="4693" x="624" y="192" width="16" height="16" rotation="90"/>
  <object id="92" name="door_east_open" gid="4702" x="608" y="176" width="16" height="16" rotation="90"/>
  <object id="93" name="door_east_open" gid="4703" x="608" y="192" width="16" height="16" rotation="90"/>
 </objectgroup>
 <objectgroup id="16" name="object layer doors closed">
  <object id="94" name="door_north_closed" gid="4686" x="304" y="16" width="16" height="16"/>
  <object id="95" name="door_north_closed" gid="4696" x="304" y="32" width="16" height="16"/>
  <object id="96" name="door_north_closed" gid="4687" x="320" y="16" width="16" height="16"/>
  <object id="97" name="door_north_closed" gid="4697" x="320" y="32" width="16" height="16"/>
  <object id="125" name="door_south_closed" gid="4686" x="336" y="368" width="16" height="16" rotation="-180"/>
  <object id="126" name="door_south_closed" gid="4687" x="320" y="368" width="16" height="16" rotation="-180"/>
  <object id="127" name="door_south_closed" gid="4697" x="320" y="352" width="16" height="16" rotation="-180"/>
  <object id="128" name="door_south_closed" gid="4696" x="336" y="352" width="16" height="16" rotation="-180"/>
  <object id="133" name="door_west_closed" gid="4686" x="16" y="208" width="16" height="16" rotation="-90"/>
  <object id="134" name="door_west_closed" gid="4687" x="16" y="192" width="16" height="16" rotation="-90"/>
  <object id="135" name="door_west_closed" gid="4696" x="32.32" y="208" width="16" height="16" rotation="-90"/>
  <object id="136" name="door_west_closed" gid="4697" x="32" y="192" width="16" height="16" rotation="-90"/>
  <object id="137" name="door_east_closed" gid="4686" x="624" y="176" width="16" height="16" rotation="90"/>
  <object id="138" name="door_east_closed" gid="4687" x="624" y="192" width="16" height="16" rotation="90"/>
  <object id="139" name="door_east_closed" gid="4696" x="608" y="176" width="16" height="16" rotation="90"/>
  <object id="140" name="door_east_closed" gid="4697" x="608" y="192" width="16" height="16" rotation="90"/>
 </objectgroup>
 <objectgroup id="17" name="object layer doors animation">
  <object id="141" name="door_north_animation" gid="1072" x="304" y="16" width="16" height="16"/>
  <object id="142" name="door_north_animation" gid="1073" x="320" y="16" width="16" height="16"/>
  <object id="144" name="door_north_animation" gid="1082" x="304" y="32" width="16" height="16"/>
  <object id="145" name="door_north_animation" gid="1083" x="320" y="32" width="16" height="16"/>
  <object id="146" name="door_south_animation" gid="1072" x="336" y="368" width="16" height="16" rotation="-180"/>
  <object id="147" name="door_south_animation" gid="1073" x="320" y="368" width="16" height="16" rotation="-180"/>
  <object id="148" name="door_south_animation" gid="1083" x="320" y="352" width="16" height="16" rotation="-180"/>
  <object id="149" name="door_south_animation" gid="1082" x="336" y="352" width="16" height="16" rotation="-180"/>
  <object id="150" name="door_west_animation" gid="1072" x="16" y="208" width="16" height="16" rotation="-90"/>
  <object id="151" name="door_west_animation" gid="1073" x="16" y="192" width="16" height="16" rotation="-90"/>
  <object id="152" name="door_west_animation" gid="1082" x="32" y="208" width="16" height="16" rotation="-90"/>
  <object id="153" name="door_west_animation" gid="1083" x="32" y="192" width="16" height="16" rotation="-90"/>
  <object id="154" name="door_east_animation" gid="1072" x="624" y="176" width="16" height="16" rotation="90"/>
  <object id="155" name="door_east_animation" gid="1073" x="624" y="192" width="16" height="16" rotation="90"/>
  <object id="156" name="door_east_animation" gid="1083" x="608" y="192" width="16" height="16" rotation="90"/>
  <object id="157" name="door_east_animation" gid="1082" x="608" y="176" width="16" height="16" rotation="90"/>
 </objectgroup>
 <objectgroup id="8" name="object layer spawns">
  <object id="24" name="spawn_north" x="304" y="40" width="32" height="32"/>
  <object id="25" name="spawn_south" x="304" y="312" width="32" height="32"/>
  <object id="26" name="spawn_west" x="40" y="176" width="32" height="32"/>
  <object id="27" name="spawn_east" x="568" y="176" width="32" height="32"/>
  <object id="28" name="player_spawn" x="176" y="176" width="32" height="32"/>
  <object id="29" name="loot_spawn" x="304" y="176" width="32" height="32"/>
  <object id="30" name="marchant_spawn" x="304" y="112" width="32" height="32"/>
  <object id="31" name="enemy_spawn" x="112" y="72" width="32" height="32"/>
  <object id="32" name="enemy_spawn" x="496" y="72" width="32" height="32"/>
  <object id="33" name="enemy_spawn" x="496" y="280" width="32" height="32"/>
 </objectgroup>
 <layer id="23" name="fire tile" width="40" height="24">
  <data encoding="csv">
0,0,0,0,0,0,0,0,0,0,0,0,0,0,0,0,0,0,0,0,0,0,0,0,0,0,0,0,0,0,0,0,0,0,0,0,0,0,0,0,
0,0,0,0,0,0,0,0,0,0,0,0,0,0,0,0,0,0,0,0,0,0,0,0,0,0,0,0,0,0,0,0,0,0,0,0,0,0,0,0,
0,0,0,0,0,0,0,0,0,0,0,0,0,0,0,0,0,0,0,0,0,0,0,0,0,0,0,0,0,0,0,0,0,0,0,0,0,0,0,0,
0,0,0,0,0,0,0,0,0,0,0,0,0,0,0,0,0,0,0,0,0,0,0,0,0,0,0,0,0,0,0,0,0,0,0,0,0,0,0,0,
0,0,0,0,0,0,0,0,0,0,0,0,0,0,0,0,0,0,0,0,0,0,0,0,0,0,0,0,0,0,0,0,0,0,0,0,0,0,0,0,
0,0,0,0,0,0,0,0,0,0,0,0,5130,5131,5132,5133,5134,0,0,0,0,0,0,0,4746,4747,4748,4749,4750,4751,4752,4753,0,0,0,0,0,0,0,0,
0,0,0,0,0,0,0,0,0,0,0,0,5145,5146,5147,5148,5149,0,0,0,0,0,0,0,4770,4771,4772,4773,4774,4775,4776,4777,0,0,0,0,0,0,0,0,
0,0,0,0,0,0,0,0,0,0,0,0,5160,5161,5162,5163,5164,0,0,0,0,0,0,0,4794,4795,4796,4797,4798,4799,4800,4801,0,0,0,0,0,0,0,0,
0,0,0,0,0,0,0,0,0,0,0,0,5175,5176,5177,5178,5179,0,0,0,0,0,0,0,4818,4819,4820,4821,4822,4823,4824,4825,0,0,0,0,0,0,0,0,
0,0,0,0,0,0,0,0,0,0,0,0,5190,5191,5192,5193,5194,0,0,0,0,0,0,0,4842,4843,4844,4845,4846,4847,4848,4849,0,0,0,0,0,0,0,0,
0,0,0,0,0,0,0,0,0,0,0,0,0,0,0,0,0,0,0,0,0,0,0,0,4866,4867,4868,4869,4870,4871,4872,4873,0,0,0,0,0,0,0,0,
0,0,0,0,0,0,0,0,0,0,0,0,0,0,0,0,0,0,0,0,0,0,0,0,4890,4891,4892,4893,4894,4895,4896,4897,0,0,0,0,0,0,0,0,
0,0,0,0,0,0,0,0,0,0,0,0,0,0,0,0,0,0,0,0,0,0,0,0,4914,4915,4916,4917,4918,4919,4920,4921,0,0,0,0,0,0,0,0,
0,0,0,0,0,0,0,0,0,0,0,0,0,0,0,0,0,0,0,0,0,0,0,0,0,0,0,0,0,0,0,0,0,0,0,0,0,0,0,0,
0,0,0,0,0,0,0,5130,5131,5132,5133,5134,0,0,0,0,0,0,0,0,0,0,0,0,0,0,0,0,0,0,0,0,0,0,0,0,0,0,0,0,
0,0,0,0,0,0,0,5145,5146,5147,5148,5149,0,0,0,0,0,0,0,0,0,0,0,0,0,0,0,0,0,0,0,0,0,0,0,0,0,0,0,0,
0,0,0,0,0,0,0,5160,5161,5162,5163,5164,0,0,0,0,0,0,0,0,0,0,0,5130,5131,5132,5133,5134,5133,5134,0,0,0,0,0,0,0,0,0,0,
0,0,0,0,0,0,0,5175,5176,5177,5178,5179,0,0,0,0,0,0,0,0,0,0,0,5145,5146,5147,5148,5149,0,0,0,0,0,0,0,0,0,0,0,0,
0,0,0,0,0,0,0,5190,5191,5192,5193,5194,0,0,0,0,0,0,0,0,0,0,0,5160,5161,5162,5163,5164,0,0,0,0,0,0,0,0,0,0,0,0,
0,0,0,0,0,0,0,0,0,0,0,0,0,0,0,0,0,0,0,0,0,0,0,5175,5176,5177,5178,5179,0,0,0,0,0,0,0,0,0,0,0,0,
0,0,0,0,0,0,0,0,0,0,0,0,0,0,0,0,0,0,0,0,0,0,0,5190,5191,5192,5193,5194,0,5194,0,0,0,0,0,0,0,0,0,0,
0,0,0,0,0,0,0,0,0,0,0,0,0,0,0,0,0,0,0,0,0,0,0,0,0,0,0,0,0,0,0,0,0,0,0,0,0,0,0,0,
0,0,0,0,0,0,0,0,0,0,0,0,0,0,0,0,0,0,0,0,0,0,0,0,0,0,0,0,0,0,0,0,0,0,0,0,0,0,0,0,
0,0,0,0,0,0,0,0,0,0,0,0,0,0,0,0,0,0,0,0,0,0,0,0,0,0,0,0,0,0,0,0,0,0,0,0,0,0,0,0
</data>
 </layer>
 <objectgroup id="24" name="fire damage">
  <object id="159" name="fire_damage" x="397.091" y="128.364">
   <polygon points="0,0 5.63636,-2.36364 8.18182,-7.09091 9.63636,-11.4545 11.4545,-10.5455 9.81818,-3.27273 14.9091,-2.36364 17.6364,-0.545455 21.4545,-8.36364 26.3636,-11.4545 28.1818,-12 26,-15.2727 28.3636,-17.4545 31.0909,-17.8182 34.9091,-26.9091 37.8182,-26.1818 45.2727,-30.5455 47.2727,-28.1818 40.3636,-25.0909 41.4545,-16.3636 47.2727,-15.8182 48.7273,-14 50.3636,-17.4545 53.8182,-21.0909 53.6364,-14.3636 53.4545,-10 50.5455,-7.27273 50,-6.54545 52.9091,-2.18182 57.4545,-4.18182 56.7273,-2 60,-0.545455 63.6364,-5.63636 63.6364,-8.54545 62.5455,-13.8182 65.6364,-19.4545 69.4545,-9.27273 71.8182,-5.09091 77.0909,-8.36364 82.7273,-9.45455 84.9091,-8.72727 78.9091,-20 83.8182,-19.8182 86,-9.27273 91.4545,-15.0909 90.9091,-18.1818 95.0909,-15.2727 94,-8.36364 94.5455,-6.18182 102.364,-6.54545 105.659,-2.86364 95.9091,1.38636 89.4091,3.88636 87.1591,4.88636 87.4091,9.88636 92.4091,7.13636 92.1591,11.6364 92.9091,16.8864 102.659,10.8864 102.409,6.13636 106.409,6.88636 105.909,12.1364 104.659,13.8864 106.409,16.1364 104.909,20.6364 109.909,16.1364 110.159,30.1364 90.9091,32.1364 94.9091,37.8864 108.659,36.8864 100.909,47.8864 103.659,52.8864 101.409,54.3864 86.9091,51.6364 84.6591,54.1364 89.1591,60.1364 85.4091,61.1364 74.9091,60.1364 73.1591,57.1364 79.6591,54.8864 71.9091,52.1364 69.4091,48.8864 65.1591,48.1364 59.9091,42.6364 55.6591,43.6364 54.6591,48.3864 42.1591,47.8864 40.4091,56.6364 24.9091,56.3864 19.9091,47.8864 11.1591,48.8864 4.90909,52.1364 -6.34091,46.1364 -6.09091,42.1364 -5.84091,34.6364 -2.09091,36.1364 2.65909,39.6364 7.90909,34.1364 5.15909,31.1364 9.40909,26.1364 0.909091,27.8864 0.909091,22.8864 0.409091,21.1364 -5.59091,18.8864 -8.09091,14.3864 -6.59091,8.38636"/>
  </object>
  <object id="160" name="fire_damage" x="199.233" y="110.445">
   <polygon points="0,0 3.58244,-1.47303 5.20032,-4.41908 6.12482,-7.13848 7.28042,-6.57199 6.24038,-2.03958 9.47614,-1.47303 11.2096,-0.339929 13.6364,-5.21225 16.7566,-7.13848 17.9122,-7.47844 16.5255,-9.51799 18.0278,-10.8777 19.7612,-11.1044 22.188,-16.7698 24.037,-16.3166 28.7751,-19.0361 30.0463,-17.563 25.6549,-15.6367 26.3483,-10.1978 30.0463,-9.85795 30.9708,-8.72484 32.0108,-10.8777 34.2066,-13.1439 34.091,-8.95144 33.9754,-6.23203 32.1264,-4.53239 31.7797,-4.07914 33.6287,-1.35972 36.5178,-2.60612 36.0556,-1.24641 38.1357,-0.339929 40.447,-3.5126 40.447,-5.32555 39.7536,-8.61155 41.7181,-12.1241 44.1449,-5.77879 45.6473,-3.17267 48.9986,-5.21225 52.581,-5.8921 53.9678,-5.43886 50.1542,-12.4641 53.2744,-12.3508 54.6611,-5.77879 58.128,-9.4047 57.7813,-11.331 60.4393,-9.51799 59.7459,-5.21225 60.0926,-3.85253 65.062,-4.07914 67.1563,-1.78463 60.9593,0.863984 56.8279,2.42199 55.3979,3.04519 55.5567,6.16121 58.7347,4.4474 58.5758,7.25184 59.0525,10.5237 65.2495,6.78444 65.0906,3.8242 67.633,4.2916 67.3152,7.56344 66.5207,8.65405 67.633,10.0563 66.6796,12.8607 69.8576,10.0563 70.0165,18.7811 57.7813,20.0275 60.3237,23.6109 69.0631,22.9877 64.1372,29.843 65.8851,32.959 64.455,33.8938 55.239,32.18 53.8089,33.738 56.669,37.4772 54.2856,38.1004 47.6118,37.4772 46.4995,35.6076 50.6309,34.2054 45.705,32.4916 44.116,30.4662 41.4148,29.9988 38.0779,26.5711 35.3766,27.1943 34.741,30.1546 26.7961,29.843 25.6838,35.296 15.8321,35.1402 12.6541,29.843 7.09266,30.4662 3.12019,32.4916 -4.03025,28.7523 -3.87135,26.2595 -3.71245,21.5855 -1.32897,22.5203 1.6901,24.7015 5.02697,21.2739 3.27909,19.4043 5.98037,16.2883 0.577813,17.3789 0.577813,14.2629 0.260016,13.1723 -3.55355,11.7701 -5.14254,8.96565 -4.18915,5.22641"/>
  </object>
  <object id="161" name="fire_damage" x="119.5" y="254.125">
   <polygon points="0,0 3.58244,-1.47303 5.20032,-4.41908 6.12482,-7.13848 7.28042,-6.57199 6.24038,-2.03958 9.47614,-1.47303 11.2096,-0.339929 13.6364,-5.21225 16.7566,-7.13848 17.9122,-7.47844 16.5255,-9.51799 18.0278,-10.8777 19.7612,-11.1044 22.188,-16.7698 24.037,-16.3166 28.7751,-19.0361 30.0463,-17.563 25.6549,-15.6367 26.3483,-10.1978 30.0463,-9.85795 30.9708,-8.72484 32.0108,-10.8777 34.2066,-13.1439 34.091,-8.95144 33.9754,-6.23203 32.1264,-4.53239 31.7797,-4.07914 33.6287,-1.35972 36.5178,-2.60612 36.0556,-1.24641 38.1357,-0.339929 40.447,-3.5126 40.447,-5.32555 39.7536,-8.61155 41.7181,-12.1241 44.1449,-5.77879 45.6473,-3.17267 48.9986,-5.21225 52.581,-5.8921 53.9678,-5.43886 50.1542,-12.4641 53.2744,-12.3508 54.6611,-5.77879 58.128,-9.4047 57.7813,-11.331 60.4393,-9.51799 59.7459,-5.21225 60.0926,-3.85253 65.062,-4.07914 67.1563,-1.78463 60.9593,0.863984 56.8279,2.42199 55.3979,3.04519 55.5567,6.16121 58.7347,4.4474 58.5758,7.25184 59.0525,10.5237 65.2495,6.78444 65.0906,3.8242 67.633,4.2916 67.3152,7.56344 66.5207,8.65405 67.633,10.0563 66.6796,12.8607 69.8576,10.0563 70.0165,18.7811 57.7813,20.0275 60.3237,23.6109 69.0631,22.9877 64.1372,29.843 65.8851,32.959 64.455,33.8938 55.239,32.18 53.8089,33.738 56.669,37.4772 54.2856,38.1004 47.6118,37.4772 46.4995,35.6076 50.6309,34.2054 45.705,32.4916 44.116,30.4662 41.4148,29.9988 38.0779,26.5711 35.3766,27.1943 34.741,30.1546 26.7961,29.843 25.6838,35.296 15.8321,35.1402 12.6541,29.843 7.09266,30.4662 3.12019,32.4916 -4.03025,28.7523 -3.87135,26.2595 -3.71245,21.5855 -1.32897,22.5203 1.6901,24.7015 5.02697,21.2739 3.27909,19.4043 5.98037,16.2883 0.577813,17.3789 0.577813,14.2629 0.260016,13.1723 -3.55355,11.7701 -5.14254,8.96565 -4.18915,5.22641"/>
  </object>
  <object id="162" name="fire_damage" x="375.333" y="287.03">
   <polygon points="0,0 3.58244,-1.47303 5.20032,-4.41908 6.12482,-7.13848 7.28042,-6.57199 6.24038,-2.03958 9.47614,-1.47303 11.2096,-0.339929 13.6364,-5.21225 16.7566,-7.13848 17.9122,-7.47844 16.5255,-9.51799 18.0278,-10.8777 19.7612,-11.1044 22.188,-16.7698 24.037,-16.3166 28.7751,-19.0361 30.0463,-17.563 25.6549,-15.6367 26.3483,-10.1978 30.0463,-9.85795 30.9708,-8.72484 32.0108,-10.8777 34.2066,-13.1439 34.091,-8.95144 33.9754,-6.23203 32.1264,-4.53239 31.7797,-4.07914 33.6287,-1.35972 36.5178,-2.60612 36.0556,-1.24641 38.1357,-0.339929 40.447,-3.5126 40.447,-5.32555 39.7536,-8.61155 41.7181,-12.1241 44.1449,-5.77879 45.6473,-3.17267 48.9986,-5.21225 52.581,-5.8921 53.9678,-5.43886 50.1542,-12.4641 53.2744,-12.3508 54.6611,-5.77879 58.128,-9.4047 57.7813,-11.331 60.4393,-9.51799 59.7459,-5.21225 60.0926,-3.85253 65.062,-4.07914 67.1563,-1.78463 60.9593,0.863984 56.8279,2.42199 55.3979,3.04519 55.5567,6.16121 58.7347,4.4474 58.5758,7.25184 59.0525,10.5237 65.2495,6.78444 65.0906,3.8242 67.633,4.2916 67.3152,7.56344 66.5207,8.65405 67.633,10.0563 66.6796,12.8607 69.8576,10.0563 70.0165,18.7811 57.7813,20.0275 60.3237,23.6109 69.0631,22.9877 64.1372,29.843 65.8851,32.959 64.455,33.8938 55.239,32.18 53.8089,33.738 56.669,37.4772 54.2856,38.1004 47.6118,37.4772 46.4995,35.6076 50.6309,34.2054 45.705,32.4916 44.116,30.4662 41.4148,29.9988 38.0779,26.5711 35.3766,27.1943 34.741,30.1546 26.7961,29.843 25.6838,35.296 15.8321,35.1402 12.6541,29.843 7.09266,30.4662 3.12019,32.4916 -4.03025,28.7523 -3.87135,26.2595 -3.71245,21.5855 -1.32897,22.5203 1.6901,24.7015 5.02697,21.2739 3.27909,19.4043 5.98037,16.2883 0.577813,17.3789 0.577813,14.2629 0.260016,13.1723 -3.55355,11.7701 -5.14254,8.96565 -4.18915,5.22641"/>
  </object>
 </objectgroup>
 <layer id="25" name="barrel 01 tile" width="40" height="24">
  <data encoding="csv">
0,0,0,0,0,0,0,0,0,0,0,0,0,0,0,0,0,0,0,0,0,0,0,0,0,0,0,0,0,0,0,0,0,0,0,0,0,0,0,0,
0,0,0,0,0,0,0,0,0,0,0,0,0,0,0,0,0,0,0,0,0,0,0,0,0,0,0,0,0,0,0,0,0,0,0,0,0,0,0,0,
0,0,0,0,0,0,0,0,0,0,0,0,0,0,0,0,0,0,0,0,0,0,0,0,0,0,0,0,0,0,0,0,0,0,0,0,0,0,0,0,
0,0,0,5280,5280,5281,5282,5283,0,0,0,0,0,0,0,0,0,0,0,0,0,0,0,0,0,0,0,0,0,0,0,0,0,0,0,0,0,0,0,0,
0,0,0,0,5284,5285,5286,5287,0,0,0,0,0,0,0,0,0,0,0,0,0,0,0,0,0,0,0,0,0,0,0,0,0,0,0,0,0,0,0,0,
0,0,0,0,5288,5289,5290,5291,0,0,0,0,0,0,0,0,0,0,0,0,0,0,0,0,0,0,0,0,0,0,0,0,0,0,0,0,0,0,0,0,
0,0,0,0,5292,5293,5294,5295,0,0,0,0,0,0,0,0,0,0,0,0,0,0,0,0,0,0,0,0,0,0,0,0,0,0,5280,0,0,0,0,0,
0,0,0,0,0,0,0,0,0,0,0,0,0,0,0,0,0,0,0,0,0,0,0,0,0,0,0,0,0,0,0,0,0,0,0,0,0,0,0,0,
0,0,0,0,0,0,0,0,0,0,0,0,0,0,0,0,0,0,0,0,0,0,0,0,0,0,0,0,0,0,0,0,0,0,0,0,0,0,0,0,
0,0,0,0,0,0,0,0,0,0,0,0,0,0,0,0,0,0,0,0,0,0,0,0,0,0,0,0,0,0,0,0,0,0,0,0,0,0,0,0,
0,0,0,0,0,0,0,0,0,0,0,0,0,0,0,0,0,0,0,0,0,0,0,0,0,0,0,0,0,0,0,0,0,0,0,0,0,0,0,0,
0,0,0,0,0,0,0,0,0,0,0,0,0,0,0,0,0,0,0,0,0,0,0,0,0,0,0,0,0,0,0,0,0,0,0,0,0,0,0,0,
0,0,0,0,0,0,0,0,0,0,0,0,0,0,0,0,0,0,0,0,0,0,0,0,0,0,0,0,0,0,0,0,0,0,0,0,0,0,0,0,
0,0,0,0,0,0,0,0,0,0,0,0,0,0,0,0,0,0,0,0,0,0,0,0,0,0,0,0,0,0,0,0,0,0,0,0,0,0,0,0,
0,0,0,0,0,0,0,0,0,0,0,0,0,0,0,0,0,0,0,0,0,0,0,0,0,0,0,0,0,0,0,0,0,0,0,0,0,0,0,0,
0,0,0,0,0,0,0,0,0,0,0,0,0,0,0,0,0,0,0,0,0,0,0,0,0,0,0,0,0,0,0,0,0,0,0,0,0,0,0,0,
0,0,0,0,0,0,0,0,0,0,0,0,0,0,0,0,0,0,0,0,0,0,0,0,0,0,0,0,0,0,0,0,0,0,0,0,0,0,0,0,
0,0,0,0,0,0,0,0,0,0,0,0,0,0,0,0,0,0,0,0,0,0,0,0,0,0,0,0,0,0,0,0,0,0,0,0,0,0,0,0,
0,0,0,0,0,0,0,0,0,0,0,0,0,0,0,0,0,0,0,0,0,0,0,0,0,0,0,0,0,0,0,0,0,0,0,0,0,0,0,0,
0,0,0,0,0,0,0,0,0,0,0,0,0,0,0,0,0,0,0,0,0,0,0,0,0,0,0,0,0,0,0,0,0,0,0,0,0,0,0,0,
0,0,0,0,0,0,0,0,0,0,0,0,0,0,0,0,0,0,0,0,0,0,0,0,0,0,0,0,0,0,0,0,0,0,0,0,0,0,0,0,
0,0,0,0,0,0,0,0,0,0,0,0,0,0,0,0,0,0,0,0,0,0,0,0,0,0,0,0,0,0,0,0,0,0,0,0,0,0,0,0,
0,0,0,0,0,0,0,0,0,0,0,0,0,0,0,0,0,0,0,0,0,0,0,0,0,0,0,0,0,0,0,0,0,0,0,0,0,0,0,0,
0,0,0,0,0,0,0,0,0,0,0,0,0,0,0,0,0,0,0,0,0,0,0,0,0,0,0,0,0,0,0,0,0,0,0,0,0,0,0,0
</data>
 </layer>
 <objectgroup id="29" name="barrel 01 object">
  <object id="172" name="barrel_01_object" x="79.3636" y="51.2613" width="33.7727" height="55.4773">
   <capsule/>
  </object>
 </objectgroup>
 <layer id="26" name="barrel 02 tile" width="40" height="24">
  <data encoding="csv">
0,0,0,0,0,0,0,0,0,0,0,0,0,0,0,0,0,0,0,0,0,0,0,0,0,0,0,0,0,0,0,0,0,0,0,0,0,0,0,0,
0,0,0,0,0,0,0,0,0,0,0,0,0,0,0,0,0,0,0,0,0,0,0,0,0,0,0,0,0,0,0,0,0,0,0,0,0,0,0,0,
0,0,0,0,0,0,0,0,0,0,0,0,0,0,0,0,0,0,0,0,0,0,0,0,0,0,0,0,0,0,0,0,0,0,0,0,0,0,0,0,
0,0,0,0,0,0,0,0,0,0,0,0,0,0,0,0,0,0,0,0,0,0,0,0,0,0,0,0,0,0,0,0,0,0,0,0,0,0,0,0,
0,0,0,0,0,0,0,0,0,0,0,0,0,0,0,0,0,0,0,0,0,0,0,0,0,0,0,0,0,0,0,0,0,0,0,0,0,0,0,0,
0,0,0,0,0,0,0,0,0,0,0,0,0,0,0,0,0,0,0,0,0,0,0,0,0,0,0,0,0,0,0,0,0,0,0,0,0,0,0,0,
0,0,0,0,0,0,0,0,0,0,0,0,0,0,0,0,0,0,0,0,0,0,0,0,0,0,0,0,0,0,0,0,0,0,0,0,0,0,0,0,
0,0,0,0,0,0,0,0,0,0,0,0,0,0,0,0,0,0,0,0,0,0,0,0,0,0,0,0,0,0,0,0,0,0,5280,5281,5282,5283,0,0,
0,0,0,0,0,0,0,0,0,0,0,0,0,0,0,0,0,0,0,0,0,0,0,0,0,0,0,0,0,0,0,0,0,0,5284,5285,5286,5287,0,0,
0,0,0,0,0,0,0,0,0,0,0,0,0,0,0,0,0,0,0,0,0,0,0,0,0,0,0,0,0,0,0,0,0,0,5288,5289,5290,5291,0,0,
0,0,0,0,0,0,0,0,0,0,0,0,0,0,0,0,0,0,0,0,0,0,0,0,0,0,0,0,0,0,0,0,0,0,5292,5293,5294,5295,0,0,
0,0,0,0,0,0,0,0,0,0,0,0,0,0,0,0,0,0,0,0,0,0,0,0,0,0,0,0,0,0,0,0,0,0,0,0,0,0,0,0,
0,0,0,0,0,0,0,0,0,0,0,0,0,0,0,0,0,0,0,0,0,0,0,0,0,0,0,0,0,0,0,0,0,0,0,0,0,0,0,0,
0,0,0,0,0,0,0,0,0,0,0,0,0,0,0,0,0,0,0,0,0,0,0,0,0,0,0,0,0,0,0,0,0,0,0,0,0,0,0,0,
0,0,0,0,0,0,0,0,0,0,0,0,0,0,0,0,0,0,0,0,0,0,0,0,0,0,0,0,0,0,0,0,0,0,0,0,0,0,0,0,
0,0,0,0,0,0,0,0,0,0,0,0,0,0,0,0,0,0,0,0,0,0,0,0,0,0,0,0,0,0,0,0,0,0,0,0,0,0,0,0,
0,0,0,0,0,0,0,0,0,0,0,0,0,0,0,0,0,0,0,0,0,0,0,0,0,0,0,0,0,0,0,0,0,0,0,0,0,0,0,0,
0,0,0,0,0,0,0,0,0,0,0,0,0,0,0,0,0,0,0,0,0,0,0,0,0,0,0,0,0,0,0,0,0,0,0,0,0,0,0,0,
0,0,0,0,0,0,0,0,0,0,0,0,0,0,0,0,0,0,0,0,0,0,0,0,0,0,0,0,0,0,0,0,0,0,0,0,0,0,0,0,
0,0,0,0,0,0,0,0,0,0,0,0,0,0,0,0,0,0,0,0,0,0,0,0,0,0,0,0,0,0,0,0,0,0,0,0,0,0,0,0,
0,0,0,0,0,0,0,0,0,0,0,0,0,0,0,0,0,0,0,0,0,0,0,0,0,0,0,0,0,0,0,0,0,0,0,0,0,0,0,0,
0,0,0,0,0,0,0,0,0,0,0,0,0,0,0,0,0,0,0,0,0,0,0,0,0,0,0,0,0,0,0,0,0,0,0,0,0,0,0,0,
0,0,0,0,0,0,0,0,0,0,0,0,0,0,0,0,0,0,0,0,0,0,0,0,0,0,0,0,0,0,0,0,0,0,0,0,0,0,0,0,
0,0,0,0,0,0,0,0,0,0,0,0,0,0,0,0,0,0,0,0,0,0,0,0,0,0,0,0,0,0,0,0,0,0,0,0,0,0,0,0
</data>
 </layer>
 <objectgroup id="30" name="barrel 02 object">
  <object id="170" name="barrel_02_object" x="559.538" y="115.473" width="33.7727" height="55.4773">
   <capsule/>
  </object>
 </objectgroup>
 <layer id="27" name="barrel 03 tile" width="40" height="24">
  <data encoding="csv">
0,0,0,0,0,0,0,0,0,0,0,0,0,0,0,0,0,0,0,0,0,0,0,0,0,0,0,0,0,0,0,0,0,0,0,0,0,0,0,0,
0,0,0,0,0,0,0,0,0,0,0,0,0,0,0,0,0,0,0,0,0,0,0,0,0,0,0,0,0,0,0,0,0,0,0,0,0,0,0,0,
0,0,0,0,0,0,0,0,0,0,0,0,0,0,0,0,0,0,0,0,0,0,0,0,0,0,0,0,0,0,0,0,0,0,0,0,0,0,0,0,
0,0,0,0,0,0,0,0,0,0,0,0,0,0,0,0,0,0,0,0,0,0,0,0,0,0,0,0,0,0,0,0,0,0,0,0,0,0,0,0,
0,0,0,0,0,0,0,0,0,0,0,0,0,0,0,0,0,0,0,0,0,0,0,0,0,0,0,0,0,0,0,0,0,0,0,0,0,0,0,0,
0,0,0,0,0,0,0,0,0,0,0,0,0,0,0,0,0,0,0,0,0,0,0,0,0,0,0,0,0,0,0,0,0,0,0,0,0,0,0,0,
0,0,0,0,0,0,0,0,0,0,0,0,0,0,0,0,0,0,0,0,0,0,0,0,0,0,0,0,0,0,0,0,0,0,0,0,0,0,0,0,
0,0,0,0,0,0,0,0,0,0,0,0,0,0,0,0,0,0,0,0,0,0,0,0,0,0,0,0,0,0,0,0,0,0,0,0,0,0,0,0,
0,0,0,0,0,0,0,0,0,0,0,0,0,0,0,0,0,0,0,0,0,0,0,0,0,0,0,0,0,0,0,0,0,0,0,0,0,0,0,0,
0,0,0,0,0,0,0,0,0,0,0,0,0,0,0,0,0,0,0,0,0,0,0,0,0,0,0,0,0,0,0,0,0,0,0,0,0,0,0,0,
0,0,0,0,0,0,0,0,0,0,0,0,0,0,0,0,0,0,0,0,0,0,0,0,0,0,0,0,0,0,0,0,0,0,0,0,0,0,0,0,
0,0,0,0,0,0,0,0,0,0,0,0,0,0,0,0,0,0,0,0,0,0,0,0,0,0,0,0,0,0,0,0,0,0,0,0,0,0,0,0,
0,0,0,0,0,0,0,0,0,0,0,0,0,0,0,0,0,0,0,0,0,0,0,0,0,0,0,0,0,0,0,0,0,0,0,0,0,0,0,0,
0,0,0,0,0,0,0,0,0,0,0,0,0,0,0,0,0,0,0,0,0,0,0,0,0,0,0,0,0,0,0,0,0,0,0,0,0,0,0,0,
0,0,0,0,0,0,0,0,0,0,0,0,0,0,5288,0,0,0,0,0,0,0,0,0,0,0,0,0,0,0,0,5280,5281,5282,5283,0,0,0,0,0,
0,0,0,0,0,0,0,0,0,0,0,0,0,0,5292,0,0,0,0,0,0,0,0,0,0,0,0,0,0,0,0,5284,5285,5286,5287,0,0,0,0,0,
0,0,0,0,0,0,0,0,0,0,0,0,0,0,0,0,0,0,0,0,0,0,0,0,0,0,0,0,0,0,0,5288,5289,5290,5291,0,0,0,0,0,
0,0,0,0,0,0,0,0,0,0,0,0,0,0,0,0,0,0,0,0,0,0,0,0,0,0,0,0,0,0,0,5292,5293,5294,5295,0,0,0,0,0,
0,0,0,0,0,0,0,0,0,0,0,0,0,0,0,0,0,0,0,0,0,0,0,0,0,0,0,0,0,0,0,0,0,0,0,0,0,0,0,0,
0,0,0,0,0,0,0,0,0,0,0,0,0,0,0,0,0,0,0,0,0,0,0,0,0,0,0,0,0,0,0,0,0,0,0,0,0,0,0,0,
0,0,0,0,0,0,0,0,0,0,0,0,0,0,0,0,0,0,0,0,0,0,0,0,0,0,0,0,0,0,0,0,0,0,0,0,0,0,0,0,
0,0,0,0,0,0,0,0,0,0,0,0,0,0,0,0,0,0,0,0,0,0,0,0,0,0,0,0,0,0,0,0,0,0,0,0,0,0,0,0,
0,0,0,0,0,0,0,0,0,0,0,0,0,0,0,0,0,0,0,0,0,0,0,0,0,0,0,0,0,0,0,0,0,0,0,0,0,0,0,0,
0,0,0,0,0,0,0,0,0,0,0,0,0,0,0,0,0,0,0,0,0,0,0,0,0,0,0,0,0,0,0,0,0,0,0,0,0,0,0,0
</data>
 </layer>
 <objectgroup id="31" name="barrel 03 object">
  <object id="169" name="barrel_03_object" x="511.114" y="228.08" width="33.7727" height="55.4773">
   <capsule/>
  </object>
 </objectgroup>
 <layer id="28" name="barrel 04 tile" width="40" height="24">
  <data encoding="csv">
0,0,0,0,0,0,0,0,0,0,0,0,0,0,0,0,0,0,0,0,0,0,0,0,0,0,0,0,0,0,0,0,0,0,0,0,0,0,0,0,
0,0,0,0,0,0,0,0,0,0,0,0,0,0,0,0,0,0,0,0,0,0,0,0,0,0,0,0,0,0,0,0,0,0,0,0,0,0,0,0,
0,0,0,0,0,0,0,0,0,0,0,0,0,0,0,0,0,0,0,0,0,0,0,0,0,0,0,0,0,0,0,0,0,0,0,0,0,0,0,0,
0,0,0,0,0,0,0,0,0,0,0,0,0,0,0,0,0,0,0,0,0,0,0,0,0,0,0,0,0,0,0,0,0,0,0,0,0,0,0,0,
0,0,0,0,0,0,0,0,0,0,0,0,0,0,0,0,0,0,0,0,0,0,0,0,0,0,0,0,0,0,0,0,0,0,0,0,0,0,0,0,
0,0,0,0,0,0,0,0,0,0,0,0,0,0,0,0,0,0,0,0,0,0,0,0,0,0,0,0,0,0,0,0,0,0,0,0,0,0,0,0,
0,0,0,0,0,0,0,0,0,0,0,0,0,0,0,0,0,0,0,0,0,0,0,0,0,0,0,0,0,0,0,0,0,0,0,0,0,0,0,0,
0,0,0,0,0,0,0,0,0,0,0,0,0,0,0,0,0,0,0,0,0,0,0,0,0,0,0,0,0,0,0,0,0,0,0,0,0,0,0,0,
0,0,0,0,0,0,0,0,0,0,0,0,0,0,0,0,0,0,0,0,0,0,0,0,0,0,0,0,0,0,0,0,0,0,0,0,0,0,0,0,
0,0,0,0,0,0,0,0,0,0,0,0,0,0,0,0,0,0,0,0,0,0,0,0,0,0,0,0,0,0,0,0,0,0,0,0,0,0,0,0,
0,0,0,0,0,0,0,0,0,0,0,0,0,0,0,0,0,0,0,0,0,0,0,0,0,0,0,0,0,0,0,0,0,0,0,0,0,0,0,0,
0,0,0,0,0,0,0,0,0,0,0,0,0,0,0,0,0,0,0,0,0,0,0,0,0,0,0,0,0,0,0,0,0,0,0,0,0,0,0,0,
0,0,0,0,0,0,0,0,0,0,0,0,0,0,0,5281,5282,5283,0,0,0,0,0,0,0,0,0,0,0,0,0,0,0,0,0,0,0,0,0,0,
0,0,0,0,0,0,0,0,0,0,0,0,0,0,5284,5285,5286,5287,0,0,0,0,0,0,0,0,0,0,0,0,0,0,0,0,0,0,0,0,0,0,
0,0,0,0,0,0,0,0,0,0,0,0,0,0,5288,5289,5290,5291,0,0,0,0,0,0,0,0,0,0,0,0,0,0,0,0,0,0,0,0,0,0,
0,0,0,0,0,0,0,0,0,0,0,0,0,0,5292,5293,5294,5295,0,0,0,0,0,0,0,0,0,0,0,0,0,0,0,0,0,0,0,0,0,0,
0,0,0,0,0,0,0,0,0,0,0,0,0,0,0,0,0,0,0,0,0,0,0,0,0,0,0,0,0,0,0,0,0,0,0,0,0,0,0,0,
0,0,0,0,0,0,0,0,0,0,0,0,0,0,0,0,0,0,0,0,0,0,0,0,0,0,0,0,0,0,0,0,0,0,0,0,0,0,0,0,
0,0,0,0,0,0,0,0,0,0,0,0,0,0,0,0,0,0,0,0,0,0,0,0,0,0,0,0,0,0,0,0,0,0,0,0,0,0,0,0,
0,0,0,0,0,0,0,0,0,0,0,0,0,0,0,0,0,0,0,0,0,0,0,0,0,0,0,0,0,0,0,0,0,0,0,0,0,0,0,0,
0,0,0,0,0,0,0,0,0,0,0,0,0,0,0,0,0,0,0,0,0,0,0,0,0,0,0,0,0,0,0,0,0,0,0,0,0,0,0,0,
0,0,0,0,0,0,0,0,0,0,0,0,0,0,0,0,0,0,0,0,0,0,0,0,0,0,0,0,0,0,0,0,0,0,0,0,0,0,0,0,
0,0,0,0,0,0,0,0,0,0,0,0,0,0,0,0,0,0,0,0,0,0,0,0,0,0,0,0,0,0,0,0,0,0,0,0,0,0,0,0,
0,0,0,0,0,0,0,0,0,0,0,0,0,0,0,0,0,0,0,0,0,0,0,0,0,0,0,0,0,0,0,0,0,0,0,0,0,0,0,0
</data>
 </layer>
 <objectgroup id="33" name="barrel 04 object">
  <object id="168" name="barrel_04_object" x="239.227" y="195.727" width="33.7727" height="55.4773">
   <capsule/>
  </object>
 </objectgroup>
</map>
