<?xml version="1.0" encoding="UTF-8"?>
<map version="1.10" tiledversion="1.11.0" orientation="orthogonal" renderorder="right-down" width="20" height="12" tilewidth="32" tileheight="32" infinite="0" nextlayerid="2" nextobjectid="17">
 <properties>
  <property name="roomId" value="level1_placeholder"/>
  <property name="roomType" value="COMBAT"/>
 </properties>
 <objectgroup id="1" name="Objects">
  <object id="1" name="player_spawn" x="96" y="176" width="32" height="32"/>
  <object id="2" name="enemy_spawn" x="480" y="176" width="32" height="32"/>
  <object id="3" name="door_east" x="608" y="160" width="32" height="64"/>
  <object id="4" name="wall_bottom" x="0" y="368" width="640" height="16"/>
  <object id="5" name="wall_top" x="0" y="0" width="640" height="16"/>
  <object id="6" name="wall_left" x="0" y="0" width="16" height="384"/>
  <object id="7" name="wall_right" x="624" y="0" width="16" height="384"/>
  <object id="8" name="door_west" x="0" y="160" width="32" height="64"/>
  <object id="9" name="spawn_west" x="48" y="176" width="32" height="32"/>
  <object id="10" name="spawn_east" x="560" y="176" width="32" height="32"/>
  <object id="11" name="door_north" x="288" y="0" width="64" height="32"/>
  <object id="12" name="spawn_north" x="304" y="48" width="32" height="32"/>
  <object id="13" name="door_south" x="288" y="352" width="64" height="32"/>
  <object id="14" name="spawn_south" x="304" y="304" width="32" height="32"/>
  <object id="15" name="enemy_spawn" x="400" y="96" width="32" height="32"/>
  <object id="16" name="enemy_spawn" x="400" y="256" width="32" height="32"/>
 </objectgroup>
</map>
